src/resources/luts/Colour_Pop.CUBE
#Created by: Adobe Photoshop Export Color Lookup Plugin
TITLE "colour_pop"
#LUT size
LUT_3D_SIZE 8
#data domain
#LUT data points
DOMAIN_MIN 0.000000 0.000000 0.000000
DOMAIN_MAX 0.903226 0.903226 0.903226
0.000000 0.000000 0.000000
0.241394 0.000000 0.000000
0.449524 0.000000 0.000000
0.624329 0.000000 0.000000
0.765869 0.000000 0.000000
0.874084 0.000000 0.000000
0.949005 0.000000 0.000000
0.990631 0.000000 0.000000
0.000000 0.241394 0.000000
0.129028 0.129028 0.000000
0.353790 0.129028 0.000000
0.545258 0.129028 0.000000
0.703461 0.129028 0.000000
0.828308 0.129028 0.000000
0.919891 0.129028 0.000000
0.978149 0.129028 0.000000
0.000000 0.449524 0.000000
0.129028 0.353790 0.000000
0.258057 0.258057 0.000000
0.466156 0.258057 0.000000
0.641022 0.258057 0.000000
0.782532 0.258057 0.000000
0.890747 0.258057 0.000000
0.965668 0.258057 0.000000
0.000000 0.624329 0.000000
0.129028 0.545258 0.000000
0.258057 0.466156 0.000000
0.387085 0.387085 0.000000
0.578583 0.387085 0.000000
0.736755 0.387085 0.000000
0.861603 0.387085 0.000000
0.953186 0.387085 0.000000
0.000000 0.765869 0.000000
0.129028 0.703461 0.000000
0.258057 0.641022 0.000000
0.387085 0.578583 0.000000
0.516144 0.516144 0.000000
0.690948 0.516144 0.000000
0.832458 0.516144 0.000000
0.940674 0.516144 0.000000
0.000000 0.874084 0.000000
0.129028 0.828308 0.000000
0.258057 0.782532 0.000000
0.387085 0.736755 0.000000
0.516144 0.690948 0.000000
0.645172 0.645172 0.000000
0.803345 0.645172 0.000000
0.928192 0.645172 0.000000
0.000000 0.949005 0.000000
0.129028 0.919891 0.000000
0.258057 0.890747 0.000000
0.387085 0.861603 0.000000
0.516144 0.832458 0.000000
0.645172 0.803345 0.000000
0.774200 0.774200 0.000000
0.915710 0.774200 0.000000
0.000000 0.990631 0.000000
0.129028 0.978149 0.000000
0.258057 0.965668 0.000000
0.387085 0.953186 0.000000
0.516144 0.940674 0.000000
0.645172 0.928192 0.000000
0.774200 0.915710 0.000000
0.903229 0.903229 0.000000
0.000000 0.000000 0.241394
0.129028 0.000000 0.129028
0.353790 0.000000 0.129028
0.545258 0.000000 0.129028
0.703461 0.000000 0.129028
0.828308 0.000000 0.129028
0.919891 0.000000 0.129028
0.978149 0.000000 0.129028
0.000000 0.129028 0.129028
0.129028 0.129028 0.129028
0.353790 0.129028 0.129028
0.545258 0.129028 0.129028
0.703461 0.129028 0.129028
0.828308 0.129028 0.129028
0.919891 0.129028 0.129028
0.978149 0.129028 0.129028
0.000000 0.353790 0.129028
0.129028 0.353790 0.129028
0.258057 0.258057 0.112366
0.466156 0.258057 0.112366
0.641022 0.258057 0.112366
0.782532 0.258057 0.112366
0.890747 0.258057 0.112366
0.965668 0.258057 0.112366
0.000000 0.545258 0.129028
0.129028 0.545258 0.129028
0.258057 0.466156 0.112366
0.387085 0.387085 0.095734
0.578583 0.387085 0.095734
0.736755 0.387085 0.095734
0.861603 0.387085 0.095734
0.953186 0.387085 0.095734
0.000000 0.703461 0.129028
0.129028 0.703461 0.129028
0.258057 0.641022 0.112366
0.387085 0.578583 0.095734
0.516144 0.516144 0.079071
0.690948 0.516144 0.079071
0.832458 0.516144 0.079071
0.940674 0.516144 0.079071
0.000000 0.828308 0.129028
0.129028 0.828308 0.129028
0.258057 0.782532 0.112366
0.387085 0.736755 0.095734
0.516144 0.690948 0.079071
0.645172 0.645172 0.062439
0.803345 0.645172 0.062439
0.928192 0.645172 0.062439
0.000000 0.919891 0.129028
0.129028 0.919891 0.129028
0.258057 0.890747 0.112366
0.387085 0.861603 0.095734
0.516144 0.832458 0.079071
0.645172 0.803345 0.062439
0.774200 0.774200 0.045776
0.915710 0.774200 0.045776
0.000000 0.978149 0.129028
0.129028 0.978149 0.129028
0.258057 0.965668 0.112366
0.387085 0.953186 0.095734
0.516144 0.940674 0.079071
0.645172 0.928192 0.062439
0.774200 0.915710 0.045776
0.903229 0.903229 0.029144
0.000000 0.000000 0.449524
0.129028 0.000000 0.353790
0.258057 0.000000 0.258057
0.466156 0.000000 0.258057
0.641022 0.000000 0.258057
0.782532 0.000000 0.258057
0.890747 0.000000 0.258057
0.965668 0.000000 0.258057
0.000000 0.129028 0.353790
0.129028 0.129028 0.353790
0.258057 0.112366 0.258057
0.466156 0.112366 0.258057
0.641022 0.112366 0.258057
0.782532 0.112366 0.258057
0.890747 0.112366 0.258057
0.965668 0.112366 0.258057
0.000000 0.258057 0.258057
0.112366 0.258057 0.258057
0.258057 0.258057 0.258057
0.466156 0.258057 0.258057
0.641022 0.258057 0.258057
0.782532 0.258057 0.258057
0.890747 0.258057 0.258057
0.965668 0.258057 0.258057
0.000000 0.466156 0.258057
0.112366 0.466156 0.258057
0.258057 0.466156 0.258057
0.387085 0.387085 0.224762
0.578583 0.387085 0.224762
0.736755 0.387085 0.224762
0.861603 0.387085 0.224762
0.953186 0.387085 0.224762
0.000000 0.641022 0.258057
0.112366 0.641022 0.258057
0.258057 0.641022 0.258057
0.387085 0.578583 0.224762
0.516144 0.516144 0.191467
0.690948 0.516144 0.191467
0.832458 0.516144 0.191467
0.940674 0.516144 0.191467
0.000000 0.782532 0.258057
0.112366 0.782532 0.258057
0.258057 0.782532 0.258057
0.387085 0.736755 0.224762
0.516144 0.690948 0.191467
0.645172 0.645172 0.158173
0.803345 0.645172 0.158173
0.928192 0.645172 0.158173
0.000000 0.890747 0.258057
0.112366 0.890747 0.258057
0.258057 0.890747 0.258057
0.387085 0.861603 0.224762
0.516144 0.832458 0.191467
0.645172 0.803345 0.158173
0.774200 0.774200 0.124847
0.915710 0.774200 0.124847
0.000000 0.965668 0.258057
0.112366 0.965668 0.258057
0.258057 0.965668 0.258057
0.387085 0.953186 0.224762
0.516144 0.940674 0.191467
0.645172 0.928192 0.158173
0.774200 0.915710 0.124847
0.903229 0.903229 0.091553
0.000000 0.000000 0.624329
0.129028 0.000000 0.545258
0.258057 0.000000 0.466156
0.387085 0.000000 0.387085
0.578583 0.000000 0.387085
0.736755 0.000000 0.387085
0.861603 0.000000 0.387085
0.953186 0.000000 0.387085
0.000000 0.129028 0.545258
0.129028 0.129028 0.545258
0.258057 0.112366 0.466156
0.387085 0.095734 0.387085
0.578583 0.095734 0.387085
0.736755 0.095734 0.387085
0.861603 0.095734 0.387085
0.953186 0.095734 0.387085
0.000000 0.258057 0.466156
0.112366 0.258057 0.466156
0.258057 0.258057 0.466156
0.387085 0.224762 0.387085
0.578583 0.224762 0.387085
0.736755 0.224762 0.387085
0.861603 0.224762 0.387085
0.953186 0.224762 0.387085
0.000000 0.387085 0.387085
0.095734 0.387085 0.387085
0.224762 0.387085 0.387085
0.387085 0.387085 0.387085
0.578583 0.387085 0.387085
0.736755 0.387085 0.387085
0.861603 0.387085 0.387085
0.953186 0.387085 0.387085
0.000000 0.578583 0.387085
0.095734 0.578583 0.387085
0.224762 0.578583 0.387085
0.387085 0.578583 0.387085
0.516144 0.516144 0.337128
0.690948 0.516144 0.337128
0.832458 0.516144 0.337128
0.940674 0.516144 0.337128
0.000000 0.736755 0.387085
0.095734 0.736755 0.387085
0.224762 0.736755 0.387085
0.387085 0.736755 0.387085
0.516144 0.690948 0.337128
0.645172 0.645172 0.287170
0.803345 0.645172 0.287170
0.928192 0.645172 0.287170
0.000000 0.861603 0.387085
0.095734 0.861603 0.387085
0.224762 0.861603 0.387085
0.387085 0.861603 0.387085
0.516144 0.832458 0.337128
0.645172 0.803345 0.287170
0.774200 0.774200 0.237244
0.915710 0.774200 0.237244
0.000000 0.953186 0.387085
0.095734 0.953186 0.387085
0.224762 0.953186 0.387085
0.387085 0.953186 0.387085
0.516144 0.940674 0.337128
0.645172 0.928192 0.287170
0.774200 0.915710 0.237244
0.903229 0.903229 0.187286
0.000000 0.000000 0.765869
0.129028 0.000000 0.703461
0.258057 0.000000 0.641022
0.387085 0.000000 0.578583
0.516144 0.000000 0.516144
0.690948 0.000000 0.516144
0.832458 0.000000 0.516144
0.940674 0.000000 0.516144
0.000000 0.129028 0.703461
0.129028 0.129028 0.703461
0.258057 0.112366 0.641022
0.387085 0.095734 0.578583
0.516144 0.079071 0.516144
0.690948 0.079071 0.516144
0.832458 0.079071 0.516144
0.940674 0.079071 0.516144
0.000000 0.258057 0.641022
0.112366 0.258057 0.641022
0.258057 0.258057 0.641022
0.387085 0.224762 0.578583
0.516144 0.191467 0.516144
0.690948 0.191467 0.516144
0.832458 0.191467 0.516144
0.940674 0.191467 0.516144
0.000000 0.387085 0.578583
0.095734 0.387085 0.578583
0.224762 0.387085 0.578583
0.387085 0.387085 0.578583
0.516144 0.337128 0.516144
0.690948 0.337128 0.516144
0.832458 0.337128 0.516144
0.940674 0.337128 0.516144
0.000000 0.516144 0.516144
0.079071 0.516144 0.516144
0.191467 0.516144 0.516144
0.337128 0.516144 0.516144
0.516144 0.516144 0.516144
0.690948 0.516144 0.516144
0.832458 0.516144 0.516144
0.940674 0.516144 0.516144
0.000000 0.690948 0.516144
0.079071 0.690948 0.516144
0.191467 0.690948 0.516144
0.337128 0.690948 0.516144
0.516144 0.690948 0.516144
0.645172 0.645172 0.454193
0.803345 0.645172 0.454193
0.928192 0.645172 0.454193
0.000000 0.832458 0.516144
0.079071 0.832458 0.516144
0.191467 0.832458 0.516144
0.337128 0.832458 0.516144
0.516144 0.832458 0.516144
0.645172 0.803345 0.454193
0.774200 0.774200 0.392242
0.915710 0.774200 0.392242
0.000000 0.940674 0.516144
0.079071 0.940674 0.516144
0.191467 0.940674 0.516144
0.337128 0.940674 0.516144
0.516144 0.940674 0.516144
0.645172 0.928192 0.454193
0.774200 0.915710 0.392242
0.903229 0.903229 0.330292
0.000000 0.000000 0.874084
0.129028 0.000000 0.828308
0.258057 0.000000 0.782532
0.387085 0.000000 0.736755
0.516144 0.000000 0.690948
0.645172 0.000000 0.645172
0.803345 0.000000 0.645172
0.928192 0.000000 0.645172
0.000000 0.129028 0.828308
0.129028 0.129028 0.828308
0.258057 0.112366 0.782532
0.387085 0.095734 0.736755
0.516144 0.079071 0.690948
0.645172 0.062439 0.645172
0.803345 0.062439 0.645172
0.928192 0.062439 0.645172
0.000000 0.258057 0.782532
0.112366 0.258057 0.782532
0.258057 0.258057 0.782532
0.387085 0.224762 0.736755
0.516144 0.191467 0.690948
0.645172 0.158173 0.645172
0.803345 0.158173 0.645172
0.928192 0.158173 0.645172
0.000000 0.387085 0.736755
0.095734 0.387085 0.736755
0.224762 0.387085 0.736755
0.387085 0.387085 0.736755
0.516144 0.337128 0.690948
0.645172 0.287170 0.645172
0.803345 0.287170 0.645172
0.928192 0.287170 0.645172
0.000000 0.516144 0.690948
0.079071 0.516144 0.690948
0.191467 0.516144 0.690948
0.337128 0.516144 0.690948
0.516144 0.516144 0.690948
0.645172 0.454193 0.645172
0.803345 0.454193 0.645172
0.928192 0.454193 0.645172
0.000000 0.645172 0.645172
0.062439 0.645172 0.645172
0.158173 0.645172 0.645172
0.287170 0.645172 0.645172
0.454193 0.645172 0.645172
0.645172 0.645172 0.645172
0.803345 0.645172 0.645172
0.928192 0.645172 0.645172
0.000000 0.803345 0.645172
0.062439 0.803345 0.645172
0.158173 0.803345 0.645172
0.287170 0.803345 0.645172
0.454193 0.803345 0.645172
0.645172 0.803345 0.645172
0.774200 0.774200 0.599731
0.915710 0.774200 0.599731
0.000000 0.928192 0.645172
0.062439 0.928192 0.645172
0.158173 0.928192 0.645172
0.287170 0.928192 0.645172
0.454193 0.928192 0.645172
0.645172 0.928192 0.645172
0.774200 0.915710 0.599731
0.903229 0.903229 0.554321
0.000000 0.000000 0.949005
0.129028 0.000000 0.919891
0.258057 0.000000 0.890747
0.387085 0.000000 0.861603
0.516144 0.000000 0.832458
0.645172 0.000000 0.803345
0.774200 0.000000 0.774200
0.915710 0.000000 0.774200
0.000000 0.129028 0.919891
0.129028 0.129028 0.919891
0.258057 0.112366 0.890747
0.387085 0.095734 0.861603
0.516144 0.079071 0.832458
0.645172 0.062439 0.803345
0.774200 0.045776 0.774200
0.915710 0.045776 0.774200
0.000000 0.258057 0.890747
0.112366 0.258057 0.890747
0.258057 0.258057 0.890747
0.387085 0.224762 0.861603
0.516144 0.191467 0.832458
0.645172 0.158173 0.803345
0.774200 0.124847 0.774200
0.915710 0.124847 0.774200
0.000000 0.387085 0.861603
0.095734 0.387085 0.861603
0.224762 0.387085 0.861603
0.387085 0.387085 0.861603
0.516144 0.337128 0.832458
0.645172 0.287170 0.803345
0.774200 0.237244 0.774200
0.915710 0.237244 0.774200
0.000000 0.516144 0.832458
0.079071 0.516144 0.832458
0.191467 0.516144 0.832458
0.337128 0.516144 0.832458
0.516144 0.516144 0.832458
0.645172 0.454193 0.803345
0.774200 0.392242 0.774200
0.915710 0.392242 0.774200
0.000000 0.645172 0.803345
0.062439 0.645172 0.803345
0.158173 0.645172 0.803345
0.287170 0.645172 0.803345
0.454193 0.645172 0.803345
0.645172 0.645172 0.803345
0.774200 0.599731 0.774200
0.915710 0.599731 0.774200
0.000000 0.774200 0.774200
0.045776 0.774200 0.774200
0.124847 0.774200 0.774200
0.237244 0.774200 0.774200
0.392242 0.774200 0.774200
0.599731 0.774200 0.774200
0.774200 0.774200 0.774200
0.915710 0.774200 0.774200
0.000000 0.915710 0.774200
0.045776 0.915710 0.774200
0.124847 0.915710 0.774200
0.237244 0.915710 0.774200
0.392242 0.915710 0.774200
0.599731 0.915710 0.774200
0.774200 0.915710 0.774200
0.903229 0.903229 0.745300
0.000000 0.000000 0.990631
0.129028 0.000000 0.978149
0.258057 0.000000 0.965668
0.387085 0.000000 0.953186
0.516144 0.000000 0.940674
0.645172 0.000000 0.928192
0.774200 0.000000 0.915710
0.903229 0.000000 0.903229
0.000000 0.129028 0.978149
0.129028 0.129028 0.978149
0.258057 0.112366 0.965668
0.387085 0.095734 0.953186
0.516144 0.079071 0.940674
0.645172 0.062439 0.928192
0.774200 0.045776 0.915710
0.903229 0.029144 0.903229
0.000000 0.258057 0.965668
0.112366 0.258057 0.965668
0.258057 0.258057 0.965668
0.387085 0.224762 0.953186
0.516144 0.191467 0.940674
0.645172 0.158173 0.928192
0.774200 0.124847 0.915710
0.903229 0.091553 0.903229
0.000000 0.387085 0.953186
0.095734 0.387085 0.953186
0.224762 0.387085 0.953186
0.387085 0.387085 0.953186
0.516144 0.337128 0.940674
0.645172 0.287170 0.928192
0.774200 0.237244 0.915710
0.903229 0.187286 0.903229
0.000000 0.516144 0.940674
0.079071 0.516144 0.940674
0.191467 0.516144 0.940674
0.337128 0.516144 0.940674
0.516144 0.516144 0.940674
0.645172 0.454193 0.928192
0.774200 0.392242 0.915710
0.903229 0.330292 0.903229
0.000000 0.645172 0.928192
0.062439 0.645172 0.928192
0.158173 0.645172 0.928192
0.287170 0.645172 0.928192
0.454193 0.645172 0.928192
0.645172 0.645172 0.928192
0.774200 0.599731 0.915710
0.903229 0.554321 0.903229
0.000000 0.774200 0.915710
0.045776 0.774200 0.915710
0.124847 0.774200 0.915710
0.237244 0.774200 0.915710
0.392242 0.774200 0.915710
0.599731 0.774200 0.915710
0.774200 0.774200 0.915710
0.903229 0.745300 0.903229
0.000000 0.903229 0.903229
0.029144 0.903229 0.903229
0.091553 0.903229 0.903229
0.187286 0.903229 0.903229
0.330292 0.903229 0.903229
0.554321 0.903229 0.903229
0.745300 0.903229 0.903229
0.903229 0.903229 0.903229
