src/resources/luts/Colour_Pop.CUBE
#Created by: Adobe Photoshop Export Color Lookup Plugin
TITLE "colour_pop"
#LUT size
LUT_3D_SIZE 5
#data domain
#LUT data points
DOMAIN_MIN 0.000000 0.000000 0.000000
DOMAIN_MAX 0.903226 0.903226 0.903226
0.000000 0.000000 0.000000
0.400604 0.000000 0.000000
0.699249 0.000000 0.000000
0.895935 0.000000 0.000000
0.990631 0.000000 0.000000
0.000000 0.400604 0.000000
0.225800 0.225800 0.000000
0.575439 0.225800 0.000000
0.823120 0.225800 0.000000
0.968781 0.225800 0.000000
0.000000 0.699249 0.000000
0.225800 0.575439 0.000000
0.451599 0.451599 0.000000
0.750275 0.451599 0.000000
0.946930 0.451599 0.000000
0.000000 0.895935 0.000000
0.225800 0.823120 0.000000
0.451599 0.750275 0.000000
0.677429 0.677429 0.000000
0.925079 0.677429 0.000000
0.000000 0.990631 0.000000
0.225800 0.968781 0.000000
0.451599 0.946930 0.000000
0.677429 0.925079 0.000000
0.903229 0.903229 0.000000
0.000000 0.000000 0.400604
0.225800 0.000000 0.225800
0.575439 0.000000 0.225800
0.823120 0.000000 0.225800
0.968781 0.000000 0.225800
0.000000 0.225800 0.225800
0.225800 0.225800 0.225800
0.575439 0.225800 0.225800
0.823120 0.225800 0.225800
0.968781 0.225800 0.225800
0.000000 0.575439 0.225800
0.225800 0.575439 0.225800
0.451599 0.451599 0.174805
0.750275 0.451599 0.174805
0.946930 0.451599 0.174805
0.000000 0.823120 0.225800
0.225800 0.823120 0.225800
0.451599 0.750275 0.174805
0.677429 0.677429 0.123810
0.925079 0.677429 0.123810
0.000000 0.968781 0.225800
0.225800 0.968781 0.225800
0.451599 0.946930 0.174805
0.677429 0.925079 0.123810
0.903229 0.903229 0.072845
0.000000 0.000000 0.699249
0.225800 0.000000 0.575439
0.451599 0.000000 0.451599
0.750275 0.000000 0.451599
0.946930 0.000000 0.451599
0.000000 0.225800 0.575439
0.225800 0.225800 0.575439
0.451599 0.174805 0.451599
0.750275 0.174805 0.451599
0.946930 0.174805 0.451599
0.000000 0.451599 0.451599
0.174805 0.451599 0.451599
0.451599 0.451599 0.451599
0.750275 0.451599 0.451599
0.946930 0.451599 0.451599
0.000000 0.750275 0.451599
0.174805 0.750275 0.451599
0.451599 0.750275 0.451599
0.677429 0.677429 0.349609
0.925079 0.677429 0.349609
0.000000 0.946930 0.451599
0.174805 0.946930 0.451599
0.451599 0.946930 0.451599
0.677429 0.925079 0.349609
0.903229 0.903229 0.247650
0.000000 0.000000 0.895935
0.225800 0.000000 0.823120
0.451599 0.000000 0.750275
0.677429 0.000000 0.677429
0.925079 0.000000 0.677429
0.000000 0.225800 0.823120
0.225800 0.225800 0.823120
0.451599 0.174805 0.750275
0.677429 0.123810 0.677429
0.925079 0.123810 0.677429
0.000000 0.451599 0.750275
0.174805 0.451599 0.750275
0.451599 0.451599 0.750275
0.677429 0.349609 0.677429
0.925079 0.349609 0.677429
0.000000 0.677429 0.677429
0.123810 0.677429 0.677429
0.349609 0.677429 0.677429
0.677429 0.677429 0.677429
0.925079 0.677429 0.677429
0.000000 0.925079 0.677429
0.123810 0.925079 0.677429
0.349609 0.925079 0.677429
0.677429 0.925079 0.677429
0.903229 0.903229 0.605164
0.000000 0.000000 0.990631
0.225800 0.000000 0.968781
0.451599 0.000000 0.946930
0.677429 0.000000 0.925079
0.903229 0.000000 0.903229
0.000000 0.225800 0.968781
0.225800 0.225800 0.968781
0.451599 0.174805 0.946930
0.677429 0.123810 0.925079
0.903229 0.072845 0.903229
0.000000 0.451599 0.946930
0.174805 0.451599 0.946930
0.451599 0.451599 0.946930
0.677429 0.349609 0.925079
0.903229 0.247650 0.903229
0.000000 0.677429 0.925079
0.123810 0.677429 0.925079
0.349609 0.677429 0.925079
0.677429 0.677429 0.925079
0.903229 0.605164 0.903229
0.000000 0.903229 0.903229
0.072845 0.903229 0.903229
0.247650 0.903229 0.903229
0.605164 0.903229 0.903229
0.903229 0.903229 0.903229
