src/resources/luts/Colour_Pop.CUBE
#Created by: Adobe Photoshop Export Color Lookup Plugin
TITLE "colour_pop"
#LUT size
LUT_3D_SIZE 32
#data domain
DOMAIN_MIN 0.0 0.0 0.0
DOMAIN_MAX 1.0 1.0 1.0
#LUT data points
0.000000 0.000000 0.000000
0.063477 0.000000 0.000000
0.124878 0.000000 0.000000
0.184174 0.000000 0.000000
0.241394 0.000000 0.000000
0.296570 0.000000 0.000000
0.349640 0.000000 0.000000
0.400604 0.000000 0.000000
0.449524 0.000000 0.000000
0.496338 0.000000 0.000000
0.541077 0.000000 0.000000
0.583740 0.000000 0.000000
0.624329 0.000000 0.000000
0.662842 0.000000 0.000000
0.699249 0.000000 0.000000
0.733582 0.000000 0.000000
0.765869 0.000000 0.000000
0.796051 0.000000 0.000000
0.824158 0.000000 0.000000
0.850159 0.000000 0.000000
0.874084 0.000000 0.000000
0.895935 0.000000 0.000000
0.915710 0.000000 0.000000
0.933411 0.000000 0.000000
0.949005 0.000000 0.000000
0.962555 0.000000 0.000000
0.973999 0.000000 0.000000
0.983337 0.000000 0.000000
0.990631 0.000000 0.000000
0.995850 0.000000 0.000000
0.998962 0.000000 0.000000
1.000000 0.000000 0.000000
0.000000 0.063477 0.000000
0.032257 0.032257 0.000000
0.094696 0.032257 0.000000
0.155029 0.032257 0.000000
0.213318 0.032257 0.000000
0.269501 0.032257 0.000000
0.323608 0.032257 0.000000
0.375641 0.032257 0.000000
0.425598 0.032257 0.000000
0.473450 0.032257 0.000000
0.519226 0.032257 0.000000
0.562927 0.032257 0.000000
0.604553 0.032257 0.000000
0.644104 0.032257 0.000000
0.681580 0.032257 0.000000
0.716949 0.032257 0.000000
0.750275 0.032257 0.000000
0.781494 0.032257 0.000000
0.810638 0.032257 0.000000
0.837677 0.032257 0.000000
0.862640 0.032257 0.000000
0.885529 0.032257 0.000000
0.906342 0.032257 0.000000
0.925079 0.032257 0.000000
0.941742 0.032257 0.000000
0.956299 0.032257 0.000000
0.968781 0.032257 0.000000
0.979187 0.032257 0.000000
0.987518 0.032257 0.000000
0.993744 0.032257 0.000000
0.997925 0.032257 0.000000
1.000000 0.032257 0.000000
0.000000 0.124878 0.000000
0.032257 0.094696 0.000000
0.064514 0.064514 0.000000
0.125916 0.064514 0.000000
0.185211 0.064514 0.000000
0.242462 0.064514 0.000000
0.297607 0.064514 0.000000
0.350677 0.064514 0.000000
0.401642 0.064514 0.000000
0.450562 0.064514 0.000000
0.497375 0.064514 0.000000
0.542145 0.064514 0.000000
0.584808 0.064514 0.000000
0.625366 0.064514 0.000000
0.663879 0.064514 0.000000
0.700287 0.064514 0.000000
0.734680 0.064514 0.000000
0.766937 0.064514 0.000000
0.797089 0.064514 0.000000
0.825195 0.064514 0.000000
0.851196 0.064514 0.000000
0.875153 0.064514 0.000000
0.897003 0.064514 0.000000
0.916748 0.064514 0.000000
0.934448 0.064514 0.000000
0.950043 0.064514 0.000000
0.963593 0.064514 0.000000
0.975037 0.064514 0.000000
0.984406 0.064514 0.000000
0.991669 0.064514 0.000000
0.996887 0.064514 0.000000
1.000000 0.064514 0.000000
0.000000 0.184174 0.000000
0.032257 0.155029 0.000000
0.064514 0.125916 0.000000
0.096771 0.096771 0.000000
0.157135 0.096771 0.000000
0.215393 0.096771 0.000000
0.271576 0.096771 0.000000
0.325684 0.096771 0.000000
0.377716 0.096771 0.000000
0.427673 0.096771 0.000000
0.475525 0.096771 0.000000
0.521332 0.096771 0.000000
0.565033 0.096771 0.000000
0.606659 0.096771 0.000000
0.646179 0.096771 0.000000
0.683655 0.096771 0.000000
0.719055 0.096771 0.000000
0.752350 0.096771 0.000000
0.783569 0.096771 0.000000
0.812714 0.096771 0.000000
0.839752 0.096771 0.000000
0.864746 0.096771 0.000000
0.887634 0.096771 0.000000
0.908447 0.096771 0.000000
0.927155 0.096771 0.000000
0.943817 0.096771 0.000000
0.958374 0.096771 0.000000
0.970856 0.096771 0.000000
0.981262 0.096771 0.000000
0.989594 0.096771 0.000000
0.995850 0.096771 0.000000
1.000000 0.096771 0.000000
0.000000 0.241394 0.000000
0.032257 0.213318 0.000000
0.064514 0.185211 0.000000
0.096771 0.157135 0.000000
0.129028 0.129028 0.000000
0.188354 0.129028 0.000000
0.245575 0.129028 0.000000
0.300720 0.129028 0.000000
0.353790 0.129028 0.000000
0.404785 0.129028 0.000000
0.453674 0.129028 0.000000
0.500519 0.129028 0.000000
0.545258 0.129028 0.000000
0.587921 0.129028 0.000000
0.628510 0.129028 0.000000
0.666992 0.129028 0.000000
0.703461 0.129028 0.000000
0.737793 0.129028 0.000000
0.770050 0.129028 0.000000
0.800232 0.129028 0.000000
0.828308 0.129028 0.000000
0.854340 0.129028 0.000000
0.878265 0.129028 0.000000
0.900116 0.129028 0.000000
0.919891 0.129028 0.000000
0.937561 0.129028 0.000000
0.953186 0.129028 0.000000
0.966705 0.129028 0.000000
0.978149 0.129028 0.000000
0.987518 0.129028 0.000000
0.994812 0.129028 0.000000
1.000000 0.129028 0.000000
0.000000 0.296570 0.000000
0.032257 0.269501 0.000000
0.064514 0.242462 0.000000
0.096771 0.215393 0.000000
0.129028 0.188354 0.000000
0.161285 0.161285 0.000000
0.219543 0.161285 0.000000
0.275757 0.161285 0.000000
0.329865 0.161285 0.000000
0.381897 0.161285 0.000000
0.431824 0.161285 0.000000
0.479706 0.161285 0.000000
0.525482 0.161285 0.000000
0.569183 0.161285 0.000000
0.610809 0.161285 0.000000
0.650360 0.161285 0.000000
0.687836 0.161285 0.000000
0.723236 0.161285 0.000000
0.756531 0.161285 0.000000
0.787720 0.161285 0.000000
0.816864 0.161285 0.000000
0.843933 0.161285 0.000000
0.868896 0.161285 0.000000
0.891785 0.161285 0.000000
0.912598 0.161285 0.000000
0.931335 0.161285 0.000000
0.947968 0.161285 0.000000
0.962555 0.161285 0.000000
0.975037 0.161285 0.000000
0.985443 0.161285 0.000000
0.993744 0.161285 0.000000
1.000000 0.161285 0.000000
0.000000 0.349640 0.000000
0.032257 0.323608 0.000000
0.064514 0.297607 0.000000
0.096771 0.271576 0.000000
0.129028 0.245575 0.000000
0.161285 0.219543 0.000000
0.193542 0.193542 0.000000
0.250763 0.193542 0.000000
0.305908 0.193542 0.000000
0.358978 0.193542 0.000000
0.409973 0.193542 0.000000
0.458893 0.193542 0.000000
0.505707 0.193542 0.000000
0.550446 0.193542 0.000000
0.593109 0.193542 0.000000
0.633698 0.193542 0.000000
0.672241 0.193542 0.000000
0.708649 0.193542 0.000000
0.742981 0.193542 0.000000
0.775238 0.193542 0.000000
0.805420 0.193542 0.000000
0.833527 0.193542 0.000000
0.859528 0.193542 0.000000
0.883453 0.193542 0.000000
0.905304 0.193542 0.000000
0.925079 0.193542 0.000000
0.942780 0.193542 0.000000
0.958374 0.193542 0.000000
0.971893 0.193542 0.000000
0.983337 0.193542 0.000000
0.992706 0.193542 0.000000
1.000000 0.193542 0.000000
0.000000 0.400604 0.000000
0.032257 0.375641 0.000000
0.064514 0.350677 0.000000
0.096771 0.325684 0.000000
0.129028 0.300720 0.000000
0.161285 0.275757 0.000000
0.193542 0.250763 0.000000
0.225800 0.225800 0.000000
0.281982 0.225800 0.000000
0.336090 0.225800 0.000000
0.388123 0.225800 0.000000
0.438080 0.225800 0.000000
0.485931 0.225800 0.000000
0.531738 0.225800 0.000000
0.575439 0.225800 0.000000
0.617065 0.225800 0.000000
0.656616 0.225800 0.000000
0.694092 0.225800 0.000000
0.729462 0.225800 0.000000
0.762756 0.225800 0.000000
0.793976 0.225800 0.000000
0.823120 0.225800 0.000000
0.850159 0.225800 0.000000
0.875153 0.225800 0.000000
0.898041 0.225800 0.000000
0.918854 0.225800 0.000000
0.937561 0.225800 0.000000
0.954224 0.225800 0.000000
0.968781 0.225800 0.000000
0.981262 0.225800 0.000000
0.991669 0.225800 0.000000
1.000000 0.225800 0.000000
0.000000 0.449524 0.000000
0.032257 0.425598 0.000000
0.064514 0.401642 0.000000
0.096771 0.377716 0.000000
0.129028 0.353790 0.000000
0.161285 0.329865 0.000000
0.193542 0.305908 0.000000
0.225800 0.281982 0.000000
0.258057 0.258057 0.000000
0.313202 0.258057 0.000000
0.366272 0.258057 0.000000
0.417267 0.258057 0.000000
0.466156 0.258057 0.000000
0.513000 0.258057 0.000000
0.557739 0.258057 0.000000
0.600403 0.258057 0.000000
0.641022 0.258057 0.000000
0.679535 0.258057 0.000000
0.715942 0.258057 0.000000
0.750275 0.258057 0.000000
0.782532 0.258057 0.000000
0.812714 0.258057 0.000000
0.840790 0.258057 0.000000
0.866821 0.258057 0.000000
0.890747 0.258057 0.000000
0.912598 0.258057 0.000000
0.932373 0.258057 0.000000
0.950043 0.258057 0.000000
0.965668 0.258057 0.000000
0.979187 0.258057 0.000000
0.990631 0.258057 0.000000
1.000000 0.258057 0.000000
0.000000 0.496338 0.000000
0.032257 0.473450 0.000000
0.064514 0.450562 0.000000
0.096771 0.427673 0.000000
0.129028 0.404785 0.000000
0.161285 0.381897 0.000000
0.193542 0.358978 0.000000
0.225800 0.336090 0.000000
0.258057 0.313202 0.000000
0.290314 0.290314 0.000000
0.344421 0.290314 0.000000
0.396454 0.290314 0.000000
0.446411 0.290314 0.000000
0.494263 0.290314 0.000000
0.540039 0.290314 0.000000
0.583740 0.290314 0.000000
0.625427 0.290314 0.000000
0.664948 0.290314 0.000000
0.702423 0.290314 0.000000
0.737793 0.290314 0.000000
0.771088 0.290314 0.000000
0.802307 0.290314 0.000000
0.831421 0.290314 0.000000
0.858490 0.290314 0.000000
0.883453 0.290314 0.000000
0.906342 0.290314 0.000000
0.927155 0.290314 0.000000
0.945892 0.290314 0.000000
0.962555 0.290314 0.000000
0.977112 0.290314 0.000000
0.989594 0.290314 0.000000
1.000000 0.290314 0.000000
0.000000 0.541077 0.000000
0.032257 0.519226 0.000000
0.064514 0.497375 0.000000
0.096771 0.475525 0.000000
0.129028 0.453674 0.000000
0.161285 0.431824 0.000000
0.193542 0.409973 0.000000
0.225800 0.388123 0.000000
0.258057 0.366272 0.000000
0.290314 0.344421 0.000000
0.322571 0.322571 0.000000
0.375641 0.322571 0.000000
0.426636 0.322571 0.000000
0.475525 0.322571 0.000000
0.522369 0.322571 0.000000
0.567108 0.322571 0.000000
0.609802 0.322571 0.000000
0.650391 0.322571 0.000000
0.688873 0.322571 0.000000
0.725311 0.322571 0.000000
0.759644 0.322571 0.000000
0.791901 0.322571 0.000000
0.822083 0.322571 0.000000
0.850159 0.322571 0.000000
0.876190 0.322571 0.000000
0.900116 0.322571 0.000000
0.921967 0.322571 0.000000
0.941742 0.322571 0.000000
0.959412 0.322571 0.000000
0.975037 0.322571 0.000000
0.988556 0.322571 0.000000
1.000000 0.322571 0.000000
0.000000 0.583740 0.000000
0.032257 0.562927 0.000000
0.064514 0.542145 0.000000
0.096771 0.521332 0.000000
0.129028 0.500519 0.000000
0.161285 0.479706 0.000000
0.193542 0.458893 0.000000
0.225800 0.438080 0.000000
0.258057 0.417267 0.000000
0.290314 0.396454 0.000000
0.322571 0.375641 0.000000
0.354828 0.354828 0.000000
0.406860 0.354828 0.000000
0.456818 0.354828 0.000000
0.504669 0.354828 0.000000
0.550446 0.354828 0.000000
0.594208 0.354828 0.000000
0.635803 0.354828 0.000000
0.675354 0.354828 0.000000
0.712830 0.354828 0.000000
0.748199 0.354828 0.000000
0.781494 0.354828 0.000000
0.812714 0.354828 0.000000
0.841827 0.354828 0.000000
0.868896 0.354828 0.000000
0.893860 0.354828 0.000000
0.916748 0.354828 0.000000
0.937561 0.354828 0.000000
0.956299 0.354828 0.000000
0.972961 0.354828 0.000000
0.987518 0.354828 0.000000
1.000000 0.354828 0.000000
0.000000 0.624329 0.000000
0.032257 0.604553 0.000000
0.064514 0.584808 0.000000
0.096771 0.565033 0.000000
0.129028 0.545258 0.000000
0.161285 0.525482 0.000000
0.193542 0.505707 0.000000
0.225800 0.485931 0.000000
0.258057 0.466156 0.000000
0.290314 0.446411 0.000000
0.322571 0.426636 0.000000
0.354828 0.406860 0.000000
0.387085 0.387085 0.000000
0.438080 0.387085 0.000000
0.486969 0.387085 0.000000
0.533813 0.387085 0.000000
0.578583 0.387085 0.000000
0.621246 0.387085 0.000000
0.661835 0.387085 0.000000
0.700317 0.387085 0.000000
0.736755 0.387085 0.000000
0.771088 0.387085 0.000000
0.803345 0.387085 0.000000
0.833527 0.387085 0.000000
0.861603 0.387085 0.000000
0.887634 0.387085 0.000000
0.911560 0.387085 0.000000
0.933411 0.387085 0.000000
0.953186 0.387085 0.000000
0.970856 0.387085 0.000000
0.986481 0.387085 0.000000
1.000000 0.387085 0.000000
0.000000 0.662842 0.000000
0.032257 0.644104 0.000000
0.064514 0.625366 0.000000
0.096771 0.606659 0.000000
0.129028 0.587921 0.000000
0.161285 0.569183 0.000000
0.193542 0.550446 0.000000
0.225800 0.531738 0.000000
0.258057 0.513000 0.000000
0.290314 0.494263 0.000000
0.322571 0.475525 0.000000
0.354828 0.456818 0.000000
0.387085 0.438080 0.000000
0.419342 0.419342 0.000000
0.469299 0.419342 0.000000
0.517151 0.419342 0.000000
0.562988 0.419342 0.000000
0.606689 0.419342 0.000000
0.648315 0.419342 0.000000
0.687836 0.419342 0.000000
0.725311 0.419342 0.000000
0.760681 0.419342 0.000000
0.793976 0.419342 0.000000
0.825195 0.419342 0.000000
0.854340 0.419342 0.000000
0.881378 0.419342 0.000000
0.906342 0.419342 0.000000
0.929230 0.419342 0.000000
0.950043 0.419342 0.000000
0.968781 0.419342 0.000000
0.985443 0.419342 0.000000
1.000000 0.419342 0.000000
0.000000 0.699249 0.000000
0.032257 0.681580 0.000000
0.064514 0.663879 0.000000
0.096771 0.646179 0.000000
0.129028 0.628510 0.000000
0.161285 0.610809 0.000000
0.193542 0.593109 0.000000
0.225800 0.575439 0.000000
0.258057 0.557739 0.000000
0.290314 0.540039 0.000000
0.322571 0.522369 0.000000
0.354828 0.504669 0.000000
0.387085 0.486969 0.000000
0.419342 0.469299 0.000000
0.451599 0.451599 0.000000
0.500519 0.451599 0.000000
0.547363 0.451599 0.000000
0.592102 0.451599 0.000000
0.634766 0.451599 0.000000
0.675354 0.451599 0.000000
0.713867 0.451599 0.000000
0.750275 0.451599 0.000000
0.784607 0.451599 0.000000
0.816864 0.451599 0.000000
0.847046 0.451599 0.000000
0.875153 0.451599 0.000000
0.901154 0.451599 0.000000
0.925079 0.451599 0.000000
0.946930 0.451599 0.000000
0.966705 0.451599 0.000000
0.984406 0.451599 0.000000
1.000000 0.451599 0.000000
0.000000 0.733582 0.000000
0.032257 0.716949 0.000000
0.064514 0.700287 0.000000
0.096771 0.683655 0.000000
0.129028 0.666992 0.000000
0.161285 0.650360 0.000000
0.193542 0.633698 0.000000
0.225800 0.617065 0.000000
0.258057 0.600403 0.000000
0.290314 0.583740 0.000000
0.322571 0.567108 0.000000
0.354828 0.550446 0.000000
0.387085 0.533813 0.000000
0.419342 0.517151 0.000000
0.451599 0.500519 0.000000
0.483856 0.483856 0.000000
0.531769 0.483856 0.000000
0.577545 0.483856 0.000000
0.621246 0.483856 0.000000
0.662872 0.483856 0.000000
0.702423 0.483856 0.000000
0.739868 0.483856 0.000000
0.775238 0.483856 0.000000
0.808533 0.483856 0.000000
0.839752 0.483856 0.000000
0.868896 0.483856 0.000000
0.895935 0.483856 0.000000
0.920929 0.483856 0.000000
0.943817 0.483856 0.000000
0.964630 0.483856 0.000000
0.983337 0.483856 0.000000
1.000000 0.483856 0.000000
0.000000 0.765869 0.000000
0.032257 0.750275 0.000000
0.064514 0.734680 0.000000
0.096771 0.719055 0.000000
0.129028 0.703461 0.000000
0.161285 0.687836 0.000000
0.193542 0.672241 0.000000
0.225800 0.656616 0.000000
0.258057 0.641022 0.000000
0.290314 0.625427 0.000000
0.322571 0.609802 0.000000
0.354828 0.594208 0.000000
0.387085 0.578583 0.000000
0.419342 0.562988 0.000000
0.451599 0.547363 0.000000
0.483856 0.531769 0.000000
0.516144 0.516144 0.000000
0.562958 0.516144 0.000000
0.607697 0.516144 0.000000
0.650360 0.516144 0.000000
0.690948 0.516144 0.000000
0.729462 0.516144 0.000000
0.765869 0.516144 0.000000
0.800201 0.516144 0.000000
0.832458 0.516144 0.000000
0.862640 0.516144 0.000000
0.890747 0.516144 0.000000
0.916748 0.516144 0.000000
0.940674 0.516144 0.000000
0.962524 0.516144 0.000000
0.982300 0.516144 0.000000
1.000000 0.516144 0.000000
0.000000 0.796051 0.000000
0.032257 0.781494 0.000000
0.064514 0.766937 0.000000
0.096771 0.752350 0.000000
0.129028 0.737793 0.000000
0.161285 0.723236 0.000000
0.193542 0.708649 0.000000
0.225800 0.694092 0.000000
0.258057 0.679535 0.000000
0.290314 0.664948 0.000000
0.322571 0.650391 0.000000
0.354828 0.635803 0.000000
0.387085 0.621246 0.000000
0.419342 0.606689 0.000000
0.451599 0.592102 0.000000
0.483856 0.577545 0.000000
0.516144 0.562958 0.000000
0.548401 0.548401 0.000000
0.594177 0.548401 0.000000
0.637878 0.548401 0.000000
0.679504 0.548401 0.000000
0.719055 0.548401 0.000000
0.756500 0.548401 0.000000
0.791901 0.548401 0.000000
0.825195 0.548401 0.000000
0.856415 0.548401 0.000000
0.885529 0.548401 0.000000
0.912598 0.548401 0.000000
0.937561 0.548401 0.000000
0.960449 0.548401 0.000000
0.981262 0.548401 0.000000
1.000000 0.548401 0.000000
0.000000 0.824158 0.000000
0.032257 0.810638 0.000000
0.064514 0.797089 0.000000
0.096771 0.783569 0.000000
0.129028 0.770050 0.000000
0.161285 0.756531 0.000000
0.193542 0.742981 0.000000
0.225800 0.729462 0.000000
0.258057 0.715942 0.000000
0.290314 0.702423 0.000000
0.322571 0.688873 0.000000
0.354828 0.675354 0.000000
0.387085 0.661835 0.000000
0.419342 0.648315 0.000000
0.451599 0.634766 0.000000
0.483856 0.621246 0.000000
0.516144 0.607697 0.000000
0.548401 0.594177 0.000000
0.580658 0.580658 0.000000
0.625397 0.580658 0.000000
0.668060 0.580658 0.000000
0.708649 0.580658 0.000000
0.747131 0.580658 0.000000
0.783569 0.580658 0.000000
0.817902 0.580658 0.000000
0.850159 0.580658 0.000000
0.880341 0.580658 0.000000
0.908417 0.580658 0.000000
0.934448 0.580658 0.000000
0.958374 0.580658 0.000000
0.980225 0.580658 0.000000
1.000000 0.580658 0.000000
0.000000 0.850159 0.000000
0.032257 0.837677 0.000000
0.064514 0.825195 0.000000
0.096771 0.812714 0.000000
0.129028 0.800232 0.000000
0.161285 0.787720 0.000000
0.193542 0.775238 0.000000
0.225800 0.762756 0.000000
0.258057 0.750275 0.000000
0.290314 0.737793 0.000000
0.322571 0.725311 0.000000
0.354828 0.712830 0.000000
0.387085 0.700317 0.000000
0.419342 0.687836 0.000000
0.451599 0.675354 0.000000
0.483856 0.662872 0.000000
0.516144 0.650360 0.000000
0.548401 0.637878 0.000000
0.580658 0.625397 0.000000
0.612915 0.612915 0.000000
0.656616 0.612915 0.000000
0.698242 0.612915 0.000000
0.737793 0.612915 0.000000
0.775238 0.612915 0.000000
0.810608 0.612915 0.000000
0.843903 0.612915 0.000000
0.875122 0.612915 0.000000
0.904266 0.612915 0.000000
0.931335 0.612915 0.000000
0.956299 0.612915 0.000000
0.979187 0.612915 0.000000
1.000000 0.612915 0.000000
0.000000 0.874084 0.000000
0.032257 0.862640 0.000000
0.064514 0.851196 0.000000
0.096771 0.839752 0.000000
0.129028 0.828308 0.000000
0.161285 0.816864 0.000000
0.193542 0.805420 0.000000
0.225800 0.793976 0.000000
0.258057 0.782532 0.000000
0.290314 0.771088 0.000000
0.322571 0.759644 0.000000
0.354828 0.748199 0.000000
0.387085 0.736755 0.000000
0.419342 0.725311 0.000000
0.451599 0.713867 0.000000
0.483856 0.702423 0.000000
0.516144 0.690948 0.000000
0.548401 0.679504 0.000000
0.580658 0.668060 0.000000
0.612915 0.656616 0.000000
0.645172 0.645172 0.000000
0.687836 0.645172 0.000000
0.728424 0.645172 0.000000
0.766907 0.645172 0.000000
0.803345 0.645172 0.000000
0.837677 0.645172 0.000000
0.869934 0.645172 0.000000
0.900116 0.645172 0.000000
0.928192 0.645172 0.000000
0.954224 0.645172 0.000000
0.978149 0.645172 0.000000
1.000000 0.645172 0.000000
0.000000 0.895935 0.000000
0.032257 0.885529 0.000000
0.064514 0.875153 0.000000
0.096771 0.864746 0.000000
0.129028 0.854340 0.000000
0.161285 0.843933 0.000000
0.193542 0.833527 0.000000
0.225800 0.823120 0.000000
0.258057 0.812714 0.000000
0.290314 0.802307 0.000000
0.322571 0.791901 0.000000
0.354828 0.781494 0.000000
0.387085 0.771088 0.000000
0.419342 0.760681 0.000000
0.451599 0.750275 0.000000
0.483856 0.739868 0.000000
0.516144 0.729462 0.000000
0.548401 0.719055 0.000000
0.580658 0.708649 0.000000
0.612915 0.698242 0.000000
0.645172 0.687836 0.000000
0.677429 0.677429 0.000000
0.719055 0.677429 0.000000
0.758606 0.677429 0.000000
0.796051 0.677429 0.000000
0.831421 0.677429 0.000000
0.864716 0.677429 0.000000
0.895935 0.677429 0.000000
0.925079 0.677429 0.000000
0.952148 0.677429 0.000000
0.977112 0.677429 0.000000
1.000000 0.677429 0.000000
0.000000 0.915710 0.000000
0.032257 0.906342 0.000000
0.064514 0.897003 0.000000
0.096771 0.887634 0.000000
0.129028 0.878265 0.000000
0.161285 0.868896 0.000000
0.193542 0.859528 0.000000
0.225800 0.850159 0.000000
0.258057 0.840790 0.000000
0.290314 0.831421 0.000000
0.322571 0.822083 0.000000
0.354828 0.812714 0.000000
0.387085 0.803345 0.000000
0.419342 0.793976 0.000000
0.451599 0.784607 0.000000
0.483856 0.775238 0.000000
0.516144 0.765869 0.000000
0.548401 0.756500 0.000000
0.580658 0.747131 0.000000
0.612915 0.737793 0.000000
0.645172 0.728424 0.000000
0.677429 0.719055 0.000000
0.709686 0.709686 0.000000
0.750275 0.709686 0.000000
0.788757 0.709686 0.000000
0.825195 0.709686 0.000000
0.859528 0.709686 0.000000
0.891785 0.709686 0.000000
0.921967 0.709686 0.000000
0.950043 0.709686 0.000000
0.976074 0.709686 0.000000
1.000000 0.709686 0.000000
0.000000 0.933411 0.000000
0.032257 0.925079 0.000000
0.064514 0.916748 0.000000
0.096771 0.908447 0.000000
0.129028 0.900116 0.000000
0.161285 0.891785 0.000000
0.193542 0.883453 0.000000
0.225800 0.875153 0.000000
0.258057 0.866821 0.000000
0.290314 0.858490 0.000000
0.322571 0.850159 0.000000
0.354828 0.841827 0.000000
0.387085 0.833527 0.000000
0.419342 0.825195 0.000000
0.451599 0.816864 0.000000
0.483856 0.808533 0.000000
0.516144 0.800201 0.000000
0.548401 0.791901 0.000000
0.580658 0.783569 0.000000
0.612915 0.775238 0.000000
0.645172 0.766907 0.000000
0.677429 0.758606 0.000000
0.709686 0.750275 0.000000
0.741943 0.741943 0.000000
0.781494 0.741943 0.000000
0.818939 0.741943 0.000000
0.854309 0.741943 0.000000
0.887634 0.741943 0.000000
0.918823 0.741943 0.000000
0.947968 0.741943 0.000000
0.975037 0.741943 0.000000
1.000000 0.741943 0.000000
0.000000 0.949005 0.000000
0.032257 0.941742 0.000000
0.064514 0.934448 0.000000
0.096771 0.927155 0.000000
0.129028 0.919891 0.000000
0.161285 0.912598 0.000000
0.193542 0.905304 0.000000
0.225800 0.898041 0.000000
0.258057 0.890747 0.000000
0.290314 0.883453 0.000000
0.322571 0.876190 0.000000
0.354828 0.868896 0.000000
0.387085 0.861603 0.000000
0.419342 0.854340 0.000000
0.451599 0.847046 0.000000
0.483856 0.839752 0.000000
0.516144 0.832458 0.000000
0.548401 0.825195 0.000000
0.580658 0.817902 0.000000
0.612915 0.810608 0.000000
0.645172 0.803345 0.000000
0.677429 0.796051 0.000000
0.709686 0.788757 0.000000
0.741943 0.781494 0.000000
0.774200 0.774200 0.000000
0.812714 0.774200 0.000000
0.849121 0.774200 0.000000
0.883453 0.774200 0.000000
0.915710 0.774200 0.000000
0.945892 0.774200 0.000000
0.973999 0.774200 0.000000
1.000000 0.774200 0.000000
0.000000 0.962555 0.000000
0.032257 0.956299 0.000000
0.064514 0.950043 0.000000
0.096771 0.943817 0.000000
0.129028 0.937561 0.000000
0.161285 0.931335 0.000000
0.193542 0.925079 0.000000
0.225800 0.918854 0.000000
0.258057 0.912598 0.000000
0.290314 0.906342 0.000000
0.322571 0.900116 0.000000
0.354828 0.893860 0.000000
0.387085 0.887634 0.000000
0.419342 0.881378 0.000000
0.451599 0.875153 0.000000
0.483856 0.868896 0.000000
0.516144 0.862640 0.000000
0.548401 0.856415 0.000000
0.580658 0.850159 0.000000
0.612915 0.843903 0.000000
0.645172 0.837677 0.000000
0.677429 0.831421 0.000000
0.709686 0.825195 0.000000
0.741943 0.818939 0.000000
0.774200 0.812714 0.000000
0.806458 0.806458 0.000000
0.843903 0.806458 0.000000
0.879303 0.806458 0.000000
0.912598 0.806458 0.000000
0.943817 0.806458 0.000000
0.972931 0.806458 0.000000
1.000000 0.806458 0.000000
0.000000 0.973999 0.000000
0.032257 0.968781 0.000000
0.064514 0.963593 0.000000
0.096771 0.958374 0.000000
0.129028 0.953186 0.000000
0.161285 0.947968 0.000000
0.193542 0.942780 0.000000
0.225800 0.937561 0.000000
0.258057 0.932373 0.000000
0.290314 0.927155 0.000000
0.322571 0.921967 0.000000
0.354828 0.916748 0.000000
0.387085 0.911560 0.000000
0.419342 0.906342 0.000000
0.451599 0.901154 0.000000
0.483856 0.895935 0.000000
0.516144 0.890747 0.000000
0.548401 0.885529 0.000000
0.580658 0.880341 0.000000
0.612915 0.875122 0.000000
0.645172 0.869934 0.000000
0.677429 0.864716 0.000000
0.709686 0.859528 0.000000
0.741943 0.854309 0.000000
0.774200 0.849121 0.000000
0.806458 0.843903 0.000000
0.838715 0.838715 0.000000
0.875122 0.838715 0.000000
0.909485 0.838715 0.000000
0.941742 0.838715 0.000000
0.971893 0.838715 0.000000
1.000000 0.838715 0.000000
0.000000 0.983337 0.000000
0.032257 0.979187 0.000000
0.064514 0.975037 0.000000
0.096771 0.970856 0.000000
0.129028 0.966705 0.000000
0.161285 0.962555 0.000000
0.193542 0.958374 0.000000
0.225800 0.954224 0.000000
0.258057 0.950043 0.000000
0.290314 0.945892 0.000000
0.322571 0.941742 0.000000
0.354828 0.937561 0.000000
0.387085 0.933411 0.000000
0.419342 0.929230 0.000000
0.451599 0.925079 0.000000
0.483856 0.920929 0.000000
0.516144 0.916748 0.000000
0.548401 0.912598 0.000000
