src/resources/luts/Kdk_2383.CUBE
TITLE "Kodak 2383_Based Look_LUT For Rec.709_Gamma:2.4 Ashikul Islam IG:@ashikulislam3251_Date:17-12-2024 (Bangladesh) "
LUT_3D_SIZE 33
0.0369726 0.0170901 0.0189975
0.0439765 0.0168307 0.0159609
0.0504463 0.0169375 0.0128176
0.0606088 0.016434 0.00816358
0.0726329 0.0154116 0.00320439
0.0871595 0.014313 0
0.103334 0.0133669 0
0.119356 0.0124819 0
0.13518 0.0115053 0
0.150118 0.0104829 0
0.165805 0.00877394 0
0.181582 0.00662242 0
0.197833 0.00344854 0
0.214694 0 0
0.235203 0 0
0.256458 0 0
0.277943 0 0
0.299001 0 0
0.317983 0 0
0.33608 0 0
0.353887 0 0
0.371252 0 0
0.388403 0 0
0.405035 0 0
0.420966 0 0
0.434272 0 0
0.446723 0 0
0.458579 0 0
0.469245 0 0
0.478553 0 0
0.488243 0 0
0.496712 0 0
0.504707 0 0
0.035874 0.0222019 0.0196384
0.0433051 0.0257725 0.0252384
0.0520027 0.0256657 0.0217441
0.0632029 0.0249485 0.0164034
0.0767987 0.024033 0.0111086
0.093431 0.0225223 0.00587472
0.108354 0.0209354 0.000289921
0.125505 0.0203555 0
0.142153 0.0196689 0
0.158679 0.0187991 0
0.175448 0.0174105 0
0.192462 0.0157015 0
0.210346 0.0131075 0
0.228382 0.00982681 0
0.247349 0.00624094 0
0.267094 0.00250248 0
0.287114 0 0
0.308797 0 0
0.327779 0 0
0.346441 0 0
0.364508 0 0
0.382055 0 0
0.398856 0 0
0.415274 0 0
0.430228 0 0
0.443427 0 0
0.455802 0 0
0.467277 0 0
0.477577 0 0
0.486763 0 0
0.49575 0 0
0.504417 0 0
0.512291 0 0
0.0349126 0.0280156 0.019791
0.042649 0.0322118 0.0276646
0.0513466 0.0360571 0.0327153
0.0645457 0.0352331 0.0276646
0.0804913 0.0339971 0.0220035
0.098497 0.0322881 0.0158694
0.115969 0.0307774 0.00972
0.132723 0.0293889 0.00389105
0.148974 0.028397 0
0.166537 0.0276646 0
0.184161 0.0264286 0
0.202106 0.0246281 0
0.220981 0.0223239 0
0.240635 0.0192721 0
0.2607 0.01561 0
0.280949 0.0117647 0
0.300191 0.00793469 0
0.320409 0.00511177 0
0.337804 0.00222782 0
0.354788 0 0
0.373098 0 0
0.390784 0 0
0.407614 0 0
0.423835 0 0
0.438926 0 0
0.452247 0 0
0.464302 0 0
0.475303 0 0
0.485481 0 0
0.494881 0 0
0.503594 0 0
0.512261 0 0
0.520348 0 0
0.0327611 0.0339055 0.0193027
0.0423133 0.0394141 0.0273747
0.0506447 0.0450294 0.0363317
0.0626688 0.0473487 0.0391089
0.0806592 0.045182 0.0326085
0.101274 0.0428626 0.0258335
0.121584 0.0409094 0.0195468
0.140505 0.0394141 0.0132448
0.157488 0.0378729 0.00726329
0.173709 0.0362554 0.00199893
0.191455 0.0346075 0
0.210422 0.0328985 0
0.230426 0.0304723 0
0.251041 0.0275425 0
0.271778 0.0236973 0
0.292439 0.01944 0
0.312718 0.0154726 0
0.332616 0.0119936 0
0.349355 0.00840772 0
0.36611 0.00508125 0
0.38175 0.00183108 0
0.397513 0 0
0.414328 0 0
0.430732 0 0
0.446082 0 0
0.459434 0 0
0.471763 0 0
0.482918 0 0
0.493294 0 0
0.502983 0 0
0.512215 0 0
0.520729 0 0
0.528496 0 0
0.0301976 0.0424048 0.0183719
0.0406195 0.048661 0.0276493
0.0495155 0.0544289 0.0359655
0.0616007 0.0594644 0.0432441
0.0789807 0.0607156 0.0441901
0.102892 0.0566415 0.0363165
0.126314 0.0542763 0.0292515
0.147326 0.0523079 0.0225834
0.166644 0.0506752 0.0166171
0.184604 0.0490578 0.0111543
0.20264 0.0469978 0.00578317
0.22005 0.0445869 0.000457771
0.240986 0.0418708 0
0.262608 0.038468 0
0.284596 0.034638 0
0.305867 0.0304875 0
0.326421 0.0260929 0
0.345739 0.021149 0
0.362997 0.0171359 0
0.378714 0.0130922 0
0.393881 0.00881972 0
0.408133 0.00451667 0
0.421744 0.000274662 0
0.437919 0 0
0.453071 0 0
0.467094 0 0
0.479927 0 0
0.49163 0 0
0.501823 0 0
0.511666 0 0
0.521233 0 0
0.530312 0 0
0.538048 0 0
0.0285039 0.0508431 0.0188296
0.0388647 0.0579538 0.0276036
0.0478981 0.0648661 0.0352178
0.0602579 0.0715801 0.042298
0.0754101 0.0788434 0.0496071
0.101534 0.07776 0.0477455
0.12903 0.0731823 0.0391089
0.153292 0.0709697 0.0325628
0.175021 0.0691539 0.0266728
0.194858 0.0671702 0.0207065
0.214817 0.0648508 0.0149844
0.233539 0.0612497 0.00939956
0.253452 0.0572519 0.00381476
0.27454 0.0535592 0
0.297963 0.0500649 0
0.320714 0.0459144 0
0.342275 0.0410163 0
0.362203 0.0358434 0
0.379782 0.0308232 0
0.396765 0.0263218 0
0.411551 0.0215305 0
0.425528 0.0165103 0
0.438865 0.0112001 0
0.451728 0.00646983 0
0.463996 0.00260929 0
0.476356 0 0
0.489265 0 0
0.500435 0 0
0.510704 0 0
0.5205 0 0
0.530175 0 0
0.539254 0 0
0.547082 0 0
0.0243229 0.0619364 0.0193179
0.0348974 0.071107 0.0273289
0.043122 0.0792401 0.0343938
0.0563973 0.0869917 0.0411078
0.0734112 0.094377 0.0478065
0.0992447 0.098558 0.0531167
0.128466 0.0973526 0.0501869
0.156207 0.0945144 0.0416876
0.180743 0.0925765 0.0350958
0.203357 0.0906233 0.0290379
0.224964 0.0881971 0.0233463
0.247257 0.085481 0.0176394
0.269566 0.0818799 0.0122225
0.291417 0.0776989 0.0061799
0.313664 0.073518 0.000457771
0.338079 0.069398 0
0.361578 0.0645457 0
0.382452 0.0588998 0
0.400961 0.0534676 0
0.41796 0.0480812 0
0.433051 0.0418097 0
0.44715 0.0358434 0
0.460868 0.0297856 0
0.473487 0.0240635 0
0.485237 0.0191348 0
0.496895 0.0147097 0
0.506752 0.0107881 0
0.514672 0.00698863 0
0.52311 0.00373846 0
0.530709 0.00103761 0
0.539269 0 0
0.548486 0 0
0.556252 0 0
0.0200656 0.074876 0.0200504
0.029099 0.0844587 0.0270848
0.0389715 0.0931258 0.0336156
0.0519112 0.101518 0.0399786
0.0716411 0.109331 0.0462043
0.100237 0.114229 0.0508431
0.128405 0.11902 0.0572824
0.157763 0.120134 0.0549172
0.185931 0.118105 0.046128
0.211154 0.115938 0.0385138
0.234974 0.113634 0.032166
0.259022 0.110948 0.0259709
0.283223 0.107576 0.0200656
0.308095 0.103761 0.0143893
0.332113 0.0999924 0.00869764
0.356466 0.0957504 0.00277714
0.380499 0.0911269 0
0.403159 0.0864271 0
0.423285 0.081178 0
0.441062 0.0755474 0
0.456916 0.0689403 0
0.471214 0.062089 0
0.484764 0.054902 0
0.497597 0.0480659 0
0.509651 0.042237 0
0.520455 0.0361181 0
0.529335 0.0306706 0
0.53695 0.0259098 0
0.544747 0.0218051 0
0.552148 0.0181277 0
0.55964 0.0153964 0
0.567758 0.0136263 0
0.575662 0.0136263 0
0.0144961 0.0877241 0.020798
0.0214389 0.0970474 0.0271
0.0335699 0.106813 0.0333257
0.0492409 0.116533 0.0395972
0.0722972 0.124453 0.0452735
0.102052 0.13022 0.050248
0.130922 0.13489 0.0563516
0.159258 0.142718 0.0654154
0.188739 0.145571 0.0626535
0.217472 0.143389 0.0533608
0.244343 0.14078 0.04477
0.270314 0.137896 0.0370184
0.2963 0.134234 0.0296941
0.322805 0.130632 0.0228885
0.348837 0.127077 0.0164797
0.37554 0.123171 0.0100557
0.4 0.118151 0.00370794
0.422538 0.113268 0
0.443748 0.108553 0
0.462837 0.103288 0
0.480095 0.0974594 0
0.495644 0.0908675 0
0.510826 0.0847639 0
0.52369 0.0774395 0
0.535256 0.069749 0
0.544869 0.0616465 0
0.552789 0.0543832 0
0.560067 0.0479133 0
0.567102 0.0424353 0
0.574578 0.038468 0
0.5823 0.0358282 0
0.590585 0.0343481 0
0.5991 0.0344244 0
0.00424201 0.0966659 0.0213931
0.0140993 0.108553 0.0277104
0.0302586 0.120943 0.0339208
0.0472267 0.131228 0.0399023
0.0720989 0.139528 0.0450752
0.104143 0.145617 0.0495308
0.133898 0.15169 0.056199
0.163073 0.158785 0.0653849
0.19144 0.169802 0.0762036
0.221912 0.172213 0.0724346
0.251698 0.169894 0.0626993
0.281163 0.167163 0.0533303
0.309773 0.163668 0.044358
0.337255 0.160052 0.0358282
0.36492 0.156115 0.0275425
0.39295 0.151629 0.0193332
0.419501 0.146761 0.0112764
0.442863 0.141283 0.0037232
0.463386 0.136538 0
0.483253 0.131945 0
0.50164 0.126558 0
0.518761 0.120745 0
0.534463 0.114565 0
0.548882 0.107942 0
0.561196 0.100511 0
0.571481 0.092668 0
0.579614 0.0847791 0
0.586145 0.0763104 0
0.593423 0.0703899 0
0.599664 0.0648203 0
0.605936 0.0598154 0
0.614725 0.0588998 0
0.623621 0.0596475 0
0 0.107179 0.0226139
0.00833143 0.121096 0.028397
0.0278935 0.135409 0.0345159
0.0470436 0.146288 0.0401465
0.0743572 0.154559 0.04477
0.106432 0.16141 0.0494087
0.136294 0.168139 0.0559701
0.165713 0.175784 0.0648203
0.19527 0.185229 0.0757458
0.224964 0.199634 0.0899977
0.257511 0.201343 0.0853437
0.289784 0.198108 0.0740215
0.320821 0.194659 0.0627756
0.350622 0.190997 0.052903
0.380865 0.187488 0.043473
0.411078 0.183062 0.0337224
0.439292 0.17792 0.0242161
0.46424 0.172808 0.0152438
0.485023 0.167559 0.00741588
0.503334 0.162036 6.10361e-05
0.522286 0.157015 0
0.540108 0.1514 0
0.556848 0.145342 0
0.572137 0.138689 0
0.585245 0.131975 0
0.596811 0.125109 0
0.606455 0.118044 0
0.613794 0.110033 0
0.620371 0.10251 0
0.626215 0.0956741 0
0.632364 0.0905013 0
0.6392 0.0867323 0
0.646952 0.0858778 0
0 0.120531 0.0241855
0.00178531 0.132708 0.0290227
0.0222934 0.148821 0.0349584
0.049958 0.161105 0.0400244
0.0778058 0.169986 0.0444343
0.109422 0.177432 0.0489815
0.139422 0.185489 0.0554513
0.168521 0.194324 0.0647898
0.198383 0.204044 0.0762646
0.229221 0.216007 0.0879072
0.260899 0.231922 0.104753
0.296208 0.232837 0.0988632
0.330846 0.230015 0.0873732
0.363851 0.226703 0.0757305
0.395438 0.22237 0.0634012
0.429023 0.217365 0.0509804
0.458717 0.212146 0.0399481
0.48481 0.206821 0.030045
0.50724 0.201526 0.0209354
0.526497 0.196033 0.0122072
0.543633 0.190265 0.00415045
0.560464 0.184344 0
0.578088 0.178439 0
0.5944 0.171817 0
0.608133 0.165331 0
0.620493 0.158389 0
0.631037 0.151385 0
0.639277 0.144274 0
0.646021 0.136812 0
0.652308 0.129549 0
0.65832 0.123629 0
0.664805 0.118883 0
0.671199 0.11574 0
0 0.137804 0.0256199
0 0.148089 0.0298161
0.0185855 0.163836 0.0353399
0.0450446 0.175982 0.039704
0.0789502 0.186267 0.0437781
0.111452 0.194873 0.0491493
0.141405 0.203494 0.0557412
0.171191 0.213062 0.0648356
0.201404 0.223041 0.0760204
0.232853 0.235233 0.0889754
0.265782 0.249805 0.103578
0.300359 0.266575 0.119799
0.337362 0.266865 0.112642
0.373739 0.26389 0.100954
0.409949 0.260349 0.0885786
0.446342 0.255497 0.0747845
0.477562 0.250187 0.0610819
0.505425 0.244541 0.0484932
0.52874 0.238956 0.0372473
0.548684 0.233204 0.0267948
0.566613 0.226642 0.0170443
0.582712 0.219623 0.00706493
0.598077 0.212696 0
0.615061 0.206485 0
0.630365 0.200183 0
0.643366 0.193561 0
0.654185 0.186603 0
0.662501 0.178973 0
0.669215 0.170977 0
0.675563 0.162768 0
0.681453 0.156039 0
0.687373 0.150317 0
0.693782 0.146761 0
0 0.155779 0.027039
0.00216678 0.166186 0.0309148
0.0188449 0.179751 0.0352941
0.0420081 0.191684 0.0393683
0.0760357 0.203159 0.0436408
0.110811 0.213001 0.0488594
0.142916 0.223041 0.0561532
0.172641 0.23331 0.0647288
0.203555 0.244373 0.0757916
0.235676 0.256214 0.0881056
0.26891 0.270069 0.10193
0.30367 0.287327 0.117433
0.339574 0.305638 0.134401
0.380102 0.304738 0.125368
0.42153 0.301076 0.112657
0.46125 0.296666 0.0993515
0.495674 0.291356 0.0862287
0.525872 0.285573 0.0726329
0.550896 0.279637 0.0591287
0.571664 0.273045 0.0461585
0.590463 0.266072 0.0341039
0.607233 0.259159 0.0221561
0.621973 0.252033 0.0106355
0.635309 0.244511 0.000122072
0.651377 0.238254 0
0.665766 0.231113 0
0.676402 0.22388 0
0.68542 0.216052 0
0.692866 0.208042 0
0.699153 0.199741 0
0.704448 0.191089 0
0.709346 0.183352 0
0.714763 0.177981 0
0 0.173724 0.0274205
0 0.182986 0.0308232
0.0156863 0.195483 0.0344244
0.0431373 0.20911 0.0382544
0.0763714 0.221653 0.0428321
0.110048 0.232609 0.0479591
0.142168 0.243565 0.055314
0.173526 0.254871 0.0643168
0.204761 0.266697 0.0747234
0.237827 0.279057 0.0869001
0.272358 0.292027 0.100999
0.30695 0.308568 0.115312
0.344411 0.326665 0.13225
0.386206 0.344945 0.15172
0.43151 0.341833 0.139361
0.474327 0.337423 0.125719
0.512978 0.332525 0.112078
0.545907 0.327443 0.098436
0.572931 0.321935 0.0848402
0.595743 0.315618 0.0700389
0.615335 0.308522 0.0552529
0.632837 0.301442 0.0411841
0.648493 0.29369 0.0277714
0.662608 0.285496 0.0149538
0.67422 0.27715 0.00285344
0.687495 0.270085 0
0.699504 0.263813 0
0.708812 0.256809 0
0.716899 0.24918 0
0.723217 0.240421 0
0.728481 0.230686 0
0.733471 0.221393 0
0.738399 0.214725 0
0 0.192279 0.0271
0 0.201816 0.0304417
0.00494392 0.210101 0.0332494
0.034638 0.225772 0.0374762
0.0771954 0.240467 0.041886
0.108293 0.252766 0.0478828
0.140093 0.264866 0.0548562
0.172213 0.277134 0.0627604
0.205325 0.289891 0.0724193
0.2374 0.304341 0.0847334
0.27335 0.318196 0.0988632
0.312032 0.331914 0.114656
0.349508 0.348272 0.130236
0.392432 0.366155 0.148211
0.438987 0.384512 0.167285
0.485695 0.381003 0.153292
0.527169 0.376638 0.139361
0.564034 0.371954 0.125338
0.593896 0.366522 0.111315
0.618173 0.360281 0.0964828
0.640055 0.353399 0.0812238
0.658305 0.345815 0.0651408
0.674434 0.337743 0.049012
0.689799 0.329076 0.0340887
0.701762 0.320165 0.0196384
0.710948 0.311192 0.00579843
0.721248 0.303471 0
0.732174 0.29633 0
0.740063 0.288075 0
0.746136 0.278737 0
0.75172 0.269108 0
0.757412 0.260853 0
0.762173 0.25388 0
0 0.212329 0.0267643
0 0.221775 0.0299229
0 0.228397 0.032517
0.0174868 0.241413 0.0361944
0.0530404 0.258824 0.0411536
0.0964981 0.274052 0.0458076
0.134173 0.287678 0.0520638
0.169497 0.301015 0.0600443
0.204181 0.314244 0.0701457
0.239536 0.328161 0.0825208
0.276844 0.341909 0.0976577
0.31458 0.355474 0.113252
0.354742 0.369879 0.129397
0.400275 0.387427 0.146059
0.447105 0.406592 0.164813
0.494804 0.423911 0.183413
0.539376 0.420172 0.168948
0.578042 0.416175 0.154574
0.61178 0.411582 0.139925
0.637858 0.405539 0.125322
0.661357 0.398795 0.110155
0.6822 0.391455 0.0943008
0.699443 0.383276 0.0770275
0.714992 0.374151 0.0590677
0.727016 0.364569 0.0407416
0.737285 0.354574 0.0236667
0.743755 0.344488 0.00675975
0.752026 0.335882 0
0.760845 0.327901 0
0.76791 0.319219 0
0.774044 0.309819 0
0.779843 0.301106 0
0.784802 0.293065 0
0 0.234073 0.0259403
0 0.242466 0.0287022
0 0.248249 0.0309148
0.00259403 0.255375 0.033341
0.033463 0.274647 0.0384985
0.0768597 0.293629 0.0445411
0.120607 0.309316 0.0508125
0.16524 0.323079 0.0589914
0.205829 0.336187 0.0690013
0.242863 0.350195 0.0823224
0.280858 0.364111 0.0968185
0.320012 0.377966 0.112566
0.363439 0.391714 0.128008
0.408621 0.407156 0.143359
0.454109 0.426719 0.161349
0.501671 0.446647 0.181827
0.548867 0.463157 0.200488
0.589975 0.459464 0.186267
0.624979 0.455268 0.17174
0.655253 0.45008 0.15639
0.68043 0.443687 0.141085
0.702159 0.43621 0.124819
0.721736 0.428 0.107713
0.738216 0.419074 0.0895552
0.751156 0.409232 0.0690776
0.761456 0.398749 0.0483406
0.76936 0.38854 0.0300298
0.773968 0.377859 0.0115663
0.779217 0.367651 0
0.786954 0.358801 0
0.793545 0.349676 0
0.798993 0.341024 0
0.79762 0.3337 0
0 0.255726 0.0253452
0 0.26305 0.0282902
0 0.268467 0.0305486
0 0.273182 0.0333257
0.0237583 0.290227 0.0379492
0.0683299 0.311162 0.0439765
0.122759 0.32874 0.0503395
0.168704 0.342626 0.0579843
0.208438 0.356497 0.0677195
0.246647 0.370672 0.080415
0.284855 0.386023 0.0958572
0.326314 0.400214 0.111162
0.371359 0.413779 0.126619
0.416129 0.429496 0.142855
0.461952 0.446754 0.160327
0.5093 0.466361 0.179416
0.554986 0.485969 0.201694
0.5991 0.501106 0.218769
0.636835 0.497261 0.203632
0.66862 0.492638 0.188846
0.696559 0.487266 0.173678
0.719417 0.479881 0.156863
0.740398 0.472007 0.140322
0.758663 0.463035 0.122194
0.773358 0.453712 0.102968
0.784634 0.443503 0.0820783
0.793057 0.433021 0.0606241
0.798932 0.422385 0.0393072
0.802472 0.411246 0.0193027
0.803738 0.398688 0
0.807172 0.389425 0
0.805829 0.380835 0
0.804349 0.371649 0
0 0.275013 0.0247959
0 0.28159 0.0276493
0 0.287053 0.0303349
1.5259e-05 0.2916 0.0330205
0.0155489 0.304601 0.0371557
0.0635691 0.327871 0.0425269
0.118181 0.346807 0.0487526
0.169223 0.361639 0.0558785
0.210361 0.375662 0.0655222
0.25069 0.390463 0.0786145
0.290471 0.405234 0.0929122
0.334112 0.419455 0.10753
0.378973 0.433265 0.124086
0.424704 0.447257 0.141711
0.470329 0.464652 0.159045
0.516564 0.484108 0.177798
0.561624 0.503532 0.198001
0.604471 0.523293 0.22034
0.644785 0.537072 0.234821
0.678569 0.532586 0.220676
0.707881 0.527504 0.206729
0.734157 0.521843 0.192554
0.756466 0.514778 0.175463
0.775814 0.506111 0.157198
0.792264 0.497276 0.138857
0.805707 0.487999 0.118914
0.815793 0.477928 0.0980697
0.822751 0.467567 0.0757458
0.826093 0.455573 0.0515145
0.823957 0.442893 0.0271458
0.814481 0.429908 0.00427253
0.811734 0.420737 0
0.810422 0.411353 0
0 0.292393 0.0242313
0 0.297902 0.0266575
0 0.302586 0.0288243
0 0.307057 0.0311437
0.00869764 0.316426 0.0345922
0.0634775 0.343297 0.040177
0.125063 0.363592 0.0458228
0.172824 0.378271 0.0525521
0.214649 0.39263 0.0614481
0.255024 0.407614 0.0744488
0.298512 0.422919 0.0886702
0.341863 0.437232 0.103624
0.386389 0.451545 0.120806
0.431952 0.465873 0.138781
0.477958 0.481804 0.156878
0.523384 0.501045 0.174655
0.567666 0.520516 0.193225
0.609705 0.540368 0.216052
0.649775 0.560418 0.238926
0.686519 0.573007 0.250874
0.717678 0.568307 0.235874
0.744457 0.562554 0.221286
0.768811 0.556176 0.206928
0.790082 0.548821 0.191318
0.808392 0.540734 0.175662
0.823575 0.531792 0.157092
0.835615 0.522347 0.137591
0.843671 0.512306 0.116396
0.848676 0.500587 0.0928817
0.841169 0.488365 0.0663615
0.831708 0.475395 0.0398718
0.820966 0.461967 0.0116274
0.815671 0.451408 0
0 0.306264 0.0222019
0 0.310842 0.0242161
0 0.315297 0.0262303
0 0.319524 0.0283665
0.0135348 0.331731 0.0315251
0.0705425 0.358862 0.0366979
0.127214 0.378866 0.0422217
0.176242 0.394491 0.0487373
0.217685 0.409125 0.0576486
0.263737 0.424491 0.0694285
0.306188 0.439719 0.0838331
0.349813 0.454673 0.0993057
0.393469 0.468925 0.11635
0.438315 0.482795 0.134173
0.484062 0.499275 0.152789
0.530221 0.517388 0.171923
0.573495 0.537408 0.191028
0.615228 0.557336 0.211795
0.655222 0.577371 0.233173
0.691249 0.597772 0.258473
0.724254 0.609125 0.270207
0.753017 0.603738 0.254902
0.777996 0.597543 0.239033
0.800534 0.590661 0.222873
0.820554 0.582788 0.206256
0.836591 0.574701 0.190021
0.849882 0.565728 0.172503
0.860456 0.5561 0.154314
0.864195 0.545617 0.133013
0.857069 0.534081 0.109071
0.848554 0.521187 0.0819562
0.837476 0.507408 0.0485389
0.825406 0.493278 0.0150149
0 0.316838 0.018143
0 0.321721 0.0195315
0 0.325948 0.0213626
0 0.329992 0.0233005
0.0216373 0.346532 0.0265202
0.0784772 0.373663 0.0312352
0.130968 0.39292 0.0363012
0.180652 0.409079 0.0422675
0.226642 0.424384 0.0500191
0.270939 0.439536 0.0612345
0.313405 0.45536 0.0759899
0.356115 0.470298 0.0915389
0.401251 0.485267 0.109483
0.445258 0.499397 0.127565
0.49012 0.515023 0.146792
0.535653 0.53315 0.16614
0.579675 0.553613 0.186542
0.620615 0.573816 0.2047
0.659937 0.594186 0.227466
0.695293 0.615152 0.253391
0.728603 0.635721 0.281819
0.75938 0.645502 0.292912
0.78645 0.64007 0.277028
0.809857 0.633448 0.260365
0.830121 0.625879 0.242313
0.847578 0.617807 0.224002
0.862058 0.608789 0.205844
0.873243 0.599603 0.187671
0.875792 0.589929 0.169406
0.870008 0.579156 0.148043
0.862715 0.566629 0.122271
0.853925 0.553964 0.0926375
0.842496 0.53959 0.0564889
0 0.327138 0.0131685
0 0.331731 0.014374
1.5259e-05 0.335622 0.0154116
0 0.339269 0.0165713
0.0306859 0.360357 0.019379
0.0868849 0.386465 0.0232395
0.143359 0.407187 0.027863
0.192172 0.423468 0.0335851
0.236042 0.438392 0.0405585
0.277775 0.453956 0.0509957
0.319249 0.469535 0.0647135
0.362814 0.485405 0.0821698
0.40705 0.500343 0.0999619
0.451942 0.515862 0.120104
0.496147 0.531289 0.139635
0.541375 0.548898 0.160174
0.58468 0.568963 0.180591
0.625818 0.589807 0.201022
0.663844 0.610391 0.221881
0.699504 0.631327 0.247257
0.732799 0.652934 0.277714
0.763333 0.672908 0.307729
0.79144 0.680827 0.316487
0.816876 0.675273 0.300313
0.838163 0.668208 0.282506
0.856977 0.660761 0.265049
0.872557 0.652781 0.246723
0.88452 0.64416 0.22797
0.886534 0.634653 0.20763
0.881163 0.624094 0.185794
0.875151 0.612222 0.162493
0.867979 0.599832 0.135866
0.858732 0.585962 0.103227
0 0.333425 0.00424201
0 0.337148 0.00503548
0 0.34078 0.00582895
0.0021973 0.345953 0.00674449
0.0468147 0.375051 0.00900282
0.103059 0.400687 0.0121004
0.155962 0.419608 0.0157626
0.203784 0.43595 0.0212253
0.244327 0.451377 0.0289464
0.285039 0.46656 0.0383154
0.326299 0.482979 0.05243
0.368719 0.49865 0.0690471
0.412741 0.515114 0.0888838
0.456962 0.530846 0.109483
0.502159 0.546746 0.131197
0.546609 0.564111 0.152132
0.589822 0.584207 0.173877
0.630472 0.605325 0.194873
0.669215 0.62652 0.21622
0.703502 0.648005 0.242359
0.736263 0.669352 0.272602
0.766903 0.689525 0.303716
0.79527 0.708186 0.334829
0.821576 0.713909 0.340993
0.845075 0.708583 0.324514
0.864134 0.702098 0.306538
0.880217 0.69482 0.287465
0.893477 0.686839 0.268193
0.896712 0.678309 0.248905
0.892088 0.668788 0.22829
0.886717 0.657801 0.205219
0.880034 0.645289 0.177829
0.871992 0.631769 0.146456
0 0.341482 0
0 0.34519 0
0 0.348592 0
0.0231327 0.366567 0
0.0718853 0.392874 0
0.122454 0.413458 0
0.169757 0.430289 0.00122072
0.213046 0.445945 0.00610361
0.252766 0.461601 0.0133974
0.292088 0.478126 0.023743
0.332174 0.494179 0.0364233
0.374426 0.511177 0.0538796
0.417838 0.527916 0.0738537
0.462516 0.544533 0.0964523
0.507408 0.560647 0.119142
0.551904 0.578653 0.143236
0.594934 0.59765 0.165438
0.635813 0.619394 0.187823
0.673548 0.640925 0.210559
0.707546 0.663066 0.238224
0.739742 0.683803 0.267536
0.770336 0.703716 0.298695
0.798901 0.723201 0.331228
0.824994 0.740719 0.363165
0.849088 0.744717 0.366934
0.869825 0.738979 0.349142
0.887877 0.732876 0.331441
0.901289 0.725811 0.312123
0.906218 0.718059 0.292378
0.901884 0.70988 0.27126
0.897078 0.699916 0.248753
0.891249 0.68893 0.222461
0.884276 0.676722 0.192477
0 0.35198 0
0 0.35552 0
0.012192 0.367453 0
0.0472114 0.390249 0
0.0924239 0.41236 0
0.13669 0.429816 0
0.182223 0.444938 0
0.223285 0.458549 1.5259e-05
0.260441 0.471672 0
0.298146 0.486763 0.00596628
0.33814 0.50399 0.0194553
0.379416 0.520851 0.0357061
0.422919 0.538338 0.0560006
0.467567 0.556039 0.0805524
0.512581 0.573281 0.105287
0.557473 0.591241 0.130938
0.599176 0.610285 0.154055
0.639948 0.632013 0.178958
0.677852 0.655085 0.206195
0.71165 0.677028 0.233646
0.743694 0.698421 0.262074
0.773175 0.717876 0.293294
0.801328 0.736675 0.326085
0.827955 0.754238 0.359548
0.852842 0.770825 0.393439
0.874266 0.77322 0.394034
0.892073 0.767788 0.375555
0.906813 0.761837 0.356298
0.91487 0.755199 0.336217
0.911009 0.747753 0.315953
0.906691 0.738659 0.29398
0.901167 0.728115 0.266896
0.894926 0.716884 0.237583
0 0.360998 0
0.00282292 0.367178 0
0.0317388 0.388861 0
0.0691997 0.40972 0
0.110292 0.428016 0
0.152056 0.44416 0
0.195895 0.458885 0
0.235798 0.471794 0
0.271839 0.484596 0
