src/resources/luts/Kdk_2383.CUBE
TITLE "Kodak 2383_Based Look_LUT For Rec.709_Gamma:2.4 Ashikul Islam IG:@ashikulislam3251_Date:17-12-2024 (Bangladesh) "
LUT_3D_SIZE 9
0.0369726 0.0170901 0.0189975
0.0726329 0.0154116 0.00320439
0.13518 0.0115053 0
0.197833 0.00344854 0
0.277943 0 0
0.353887 0 0
0.420966 0 0
0.469245 0 0
0.504707 0 0
0.0301976 0.0424048 0.0183719
0.0789807 0.0607156 0.0441901
0.166644 0.0506752 0.0166171
0.240986 0.0418708 0
0.326421 0.0260929 0
0.393881 0.00881972 0
0.453071 0 0
0.501823 0 0
0.538048 0 0
0.0144961 0.0877241 0.020798
0.0722972 0.124453 0.0452735
0.188739 0.145571 0.0626535
0.2963 0.134234 0.0296941
0.4 0.118151 0.00370794
0.480095 0.0974594 0
0.535256 0.069749 0
0.567102 0.0424353 0
0.5991 0.0344244 0
0 0.137804 0.0256199
0.0789502 0.186267 0.0437781
0.201404 0.223041 0.0760204
0.337362 0.266865 0.112642
0.477562 0.250187 0.0610819
0.566613 0.226642 0.0170443
0.630365 0.200183 0
0.669215 0.170977 0
0.693782 0.146761 0
0 0.212329 0.0267643
0.0530404 0.258824 0.0411536
0.204181 0.314244 0.0701457
0.354742 0.369879 0.129397
0.539376 0.420172 0.168948
0.661357 0.398795 0.110155
0.727016 0.364569 0.0407416
0.760845 0.327901 0
0.784802 0.293065 0
0 0.292393 0.0242313
0.00869764 0.316426 0.0345922
0.214649 0.39263 0.0614481
0.386389 0.451545 0.120806
0.567666 0.520516 0.193225
0.717678 0.568307 0.235874
0.808392 0.540734 0.175662
0.848676 0.500587 0.0928817
0.815671 0.451408 0
0 0.333425 0.00424201
0.0468147 0.375051 0.00900282
0.244327 0.451377 0.0289464
0.412741 0.515114 0.0888838
0.589822 0.584207 0.173877
0.736263 0.669352 0.272602
0.845075 0.708583 0.324514
0.896712 0.678309 0.248905
0.871992 0.631769 0.146456
0.00233463 0.36939 0
0.131731 0.442313 0
0.282445 0.495125 0
0.429786 0.549279 0.0111391
0.607675 0.629679 0.127413
0.749844 0.719203 0.250492
0.856657 0.791623 0.385351
0.928161 0.816663 0.433509
0.914137 0.78645 0.332845
0.123095 0.450935 0
0.228061 0.485023 0
0.338109 0.515251 0
0.465705 0.554925 0
0.601984 0.619608 0
0.755489 0.736355 0.192752
0.862715 0.817014 0.352804
0.934783 0.878508 0.525109
0.950378 0.894163 0.563455
0.0093843 0.0229343 0.0460975
0.0736553 0.0261845 0.0452735
0.143679 0.0227054 0.0259709
0.204791 0.0166323 0.00747692
0.276219 0.00343328 0
0.35021 0 0
0.41706 0 0
0.468971 0 0
0.508125 0 0
0.0291905 0.0509651 0.0643168
0.0627909 0.0726024 0.0821698
0.169467 0.0693523 0.0553445
0.25069 0.06009 0.0300908
0.334066 0.0438697 0.0093843
0.400885 0.0241855 0
0.449928 0.000213626 0
0.497612 0 0
0.534142 0 0
0 0.0865949 0.0534218
0.0454414 0.130083 0.0791028
0.177752 0.179171 0.136797
0.301793 0.164096 0.0898756
0.413931 0.14786 0.0506752
0.494911 0.126818 0.0188907
0.548653 0.0999771 0
0.583749 0.0700084 0
0.597543 0.0390326 0
0 0.143191 0.0522469
0.0269322 0.193118 0.0826734
0.179675 0.259648 0.142809
0.328664 0.301183 0.190219
0.485969 0.287083 0.141512
0.591302 0.264988 0.0944076
0.653056 0.235218 0.0437171
0.681102 0.201587 0.000991836
0.703227 0.172488 0
0 0.222995 0.058732
0 0.265232 0.0838788
0.173693 0.348043 0.138552
0.340658 0.408255 0.206302
0.533837 0.453986 0.246983
0.6748 0.43592 0.195392
0.754772 0.405188 0.135592
0.789502 0.365301 0.0649882
0.792981 0.321508 0
0 0.31133 0.0669718
0 0.347066 0.0894026
0.178332 0.426734 0.133257
0.370016 0.49102 0.19675
0.558465 0.549279 0.262516
0.717281 0.598825 0.303243
0.817411 0.573129 0.244068
0.869993 0.537057 0.179477
0.84683 0.491463 0.0847028
0 0.374563 0.0537575
0 0.399023 0.0673228
0.212543 0.490211 0.106294
0.399908 0.556146 0.168719
0.583108 0.614542 0.239826
0.734218 0.692973 0.33225
0.846265 0.730495 0.38294
0.90988 0.703227 0.312169
0.890318 0.663249 0.220798
0 0.390021 0
0.0497902 0.434958 0
0.249912 0.523339 0.0269169
0.426795 0.597848 0.106508
0.606699 0.667033 0.203662
0.749722 0.741054 0.310124
0.856199 0.806271 0.430243
0.930007 0.830182 0.478889
0.92282 0.802426 0.38114
0.0466926 0.424399 0
0.174044 0.477165 0
0.304936 0.5252 0
0.444175 0.577646 0
0.614557 0.667445 0.10338
0.758328 0.758587 0.253437
0.863005 0.829816 0.392782
0.935286 0.886061 0.5552
0.954314 0.901015 0.59205
0 0.0277562 0.081529
0.0549477 0.0499428 0.103456
0.149416 0.0361028 0.0911421
0.230304 0.034699 0.0666514
0.3131 0.0242161 0.0443732
0.378088 0.00656138 0.0265354
0.431052 0 0.0103914
0.474205 0 0
0.51339 0 0
0 0.051957 0.101289
0.0158236 0.0764019 0.125689
0.166201 0.0977646 0.14493
0.269856 0.0956283 0.115633
0.370336 0.0831922 0.083238
0.445502 0.0604868 0.0503243
0.491005 0.0319982 0.0234226
0.510475 0.0043183 0.00108339
0.539956 0 0
0 0.101152 0.128542
0.0513466 0.140322 0.160464
0.149233 0.190372 0.199863
0.303807 0.202319 0.172442
0.430121 0.187915 0.131609
0.527474 0.169009 0.0940566
0.587045 0.142 0.0544747
0.617151 0.111589 0.0203555
0.627909 0.0819409 0
0 0.163989 0.134722
0.0200198 0.199435 0.15201
0.142489 0.272877 0.201877
0.311299 0.344045 0.281941
0.488609 0.326299 0.230655
0.61239 0.307073 0.186435
0.688411 0.280797 0.139406
0.726513 0.248356 0.0880446
0.732479 0.211276 0.0295109
0 0.250111 0.136828
0 0.273594 0.142748
0.111116 0.360845 0.202838
0.310964 0.449729 0.287037
0.51838 0.493156 0.330816
0.681559 0.478279 0.281056
0.774395 0.449592 0.230777
0.825132 0.41384 0.173892
0.836683 0.370596 0.0988022
0 0.328878 0.13167
0 0.354162 0.145052
0.0846418 0.442542 0.203616
0.336614 0.533257 0.275547
0.542046 0.589654 0.343801
0.712367 0.635401 0.388632
0.82443 0.613031 0.330434
0.886168 0.579965 0.266773
0.878141 0.538735 0.192096
0 0.395178 0.117998
0 0.42977 0.140032
0.130617 0.521691 0.191318
0.369757 0.600198 0.251102
0.569314 0.66009 0.3234
0.728985 0.720623 0.408911
0.845197 0.757366 0.457374
0.91809 0.733227 0.389639
0.908431 0.698665 0.305043
0 0.452064 0.0743267
1.5259e-05 0.478737 0.09131
0.203769 0.575143 0.139239
0.405081 0.648524 0.206226
0.595956 0.712123 0.290517
0.746853 0.767117 0.383719
0.85481 0.824292 0.489769
0.931121 0.846937 0.537743
0.933532 0.822675 0.445243
0 0.412787 0
0.0673228 0.469047 0
0.255665 0.549126 0
0.431128 0.63566 0.0807965
0.615381 0.718502 0.207065
0.757809 0.785519 0.328405
0.86273 0.846372 0.449042
0.935317 0.89572 0.594781
0.959762 0.910124 0.632807
0 0.0398108 0.133486
0.00675975 0.0574655 0.149935
0.150179 0.0796063 0.178698
0.244404 0.0540627 0.163897
0.347631 0.044358 0.140642
0.432517 0.0307774 0.11809
0.48896 0.00682078 0.0943618
0.530251 0 0.0701457
0.55552 0 0.0441291
0 0.0727703 0.158267
0 0.0885786 0.174212
0.133791 0.148257 0.223301
0.27245 0.131487 0.220295
0.397559 0.126802 0.193515
0.499138 0.11545 0.166247
0.568292 0.0950942 0.137469
0.604425 0.0616312 0.104051
0.611856 0.0291752 0.0666056
0 0.121324 0.189349
0 0.141649 0.204257
0.0800488 0.196048 0.252979
0.296056 0.249393 0.290288
0.44625 0.243015 0.258717
0.564996 0.228534 0.22092
0.642252 0.204349 0.181308
0.686244 0.174441 0.138415
0.69987 0.142138 0.0908827
0 0.189548 0.226322
0.0419165 0.2262 0.254246
0.160815 0.287373 0.302144
0.27158 0.354452 0.345083
0.486946 0.372412 0.321813
0.629404 0.354253 0.280232
0.71722 0.32932 0.236683
0.768688 0.299413 0.187549
0.784726 0.262272 0.130404
0 0.27422 0.241138
0 0.300542 0.250935
0.110292 0.375006 0.290883
0.267124 0.467063 0.347616
0.494194 0.546532 0.429633
0.683116 0.525704 0.371191
0.787625 0.499855 0.319585
0.848692 0.4654 0.26627
0.871336 0.424109 0.207813
0 0.362127 0.242344
0 0.384222 0.247883
0.0307774 0.435004 0.26569
0.287282 0.567498 0.349355
0.514733 0.636851 0.433692
0.703731 0.673365 0.483314
0.828901 0.655833 0.426642
0.899672 0.626184 0.364279
0.901961 0.588159 0.29102
0 0.435004 0.227649
0 0.457877 0.230289
0.0188907 0.50753 0.244358
0.321248 0.64213 0.337438
0.543832 0.705806 0.41413
0.719966 0.751919 0.493858
0.841886 0.786282 0.540841
0.92369 0.765515 0.476341
0.925353 0.734752 0.395392
0 0.49633 0.182193
0 0.516472 0.182574
0.0925612 0.601526 0.230564
0.363348 0.695781 0.306172
0.577142 0.755718 0.383413
0.738674 0.800809 0.466239
0.851484 0.843885 0.559762
0.931273 0.865309 0.603876
0.944869 0.844282 0.518929
1.5259e-05 0.47306 0.0462043
0 0.506752 0.0725872
0.186404 0.613947 0.131487
0.405814 0.700832 0.217304
0.603769 0.767208 0.311101
0.754314 0.819608 0.411551
0.862303 0.865263 0.519661
0.934997 0.906706 0.64033
0.965942 0.92079 0.681239
0 0.0664683 0.194385
0 0.0826276 0.213184
0.109987 0.132021 0.254612
0.254932 0.119326 0.265309
0.373098 0.0919203 0.248157
0.480735 0.0750134 0.226688
0.553643 0.0544137 0.201587
0.598154 0.0256199 0.173053
0.617319 0 0.142168
0 0.102235 0.221042
0 0.118227 0.237736
0.0274052 0.153384 0.26363
0.269306 0.20737 0.316915
0.40763 0.174762 0.301671
0.531502 0.163638 0.276829
0.614359 0.148394 0.247959
0.667765 0.12549 0.215091
0.691829 0.0978866 0.178637
0 0.15108 0.253803
0 0.168307 0.266712
0 0.198886 0.287037
0.252445 0.294713 0.364508
0.444007 0.28835 0.366674
0.588388 0.278523 0.336782
0.680247 0.264683 0.304082
0.739864 0.241352 0.26775
0.76463 0.21117 0.219883
0 0.216785 0.288792
0 0.234913 0.300984
0.0415961 0.28014 0.336751
0.196124 0.35935 0.403082
0.477165 0.437446 0.451591
0.648081 0.42266 0.409857
0.749233 0.399496 0.36199
0.811261 0.367391 0.312367
0.837522 0.330114 0.258473
0 0.300511 0.331411
0.0141299 0.332006 0.349828
0.155871 0.409506 0.406806
0.304112 0.494499 0.46186
0.453681 0.576791 0.512489
0.68162 0.57554 0.467582
0.799512 0.553246 0.416236
0.870115 0.521416 0.360342
0.895232 0.480964 0.296559
0 0.398322 0.3449
0 0.42414 0.354986
0.146899 0.50901 0.407172
0.30631 0.593164 0.455421
0.479423 0.672419 0.512932
0.688991 0.714809 0.57763
0.830152 0.697505 0.519951
0.909316 0.670787 0.459785
0.921981 0.637171 0.390188
0 0.484596 0.340063
0 0.510124 0.348852
0.126497 0.58851 0.390402
0.305013 0.673594 0.435981
0.511742 0.74316 0.49865
0.706279 0.787762 0.575326
0.836057 0.813779 0.621866
0.926177 0.796872 0.561471
0.940322 0.769421 0.48632
1.5259e-05 0.55697 0.317327
0 0.578897 0.324468
0.106294 0.647745 0.357839
0.309575 0.730816 0.400122
0.549996 0.791653 0.472541
0.727886 0.833173 0.550134
0.846647 0.862394 0.629236
0.930266 0.883085 0.6692
0.9552 0.864851 0.591989
0 0.582589 0.247456
1.5259e-05 0.603861 0.254093
0.0919509 0.663874 0.276783
0.353368 0.748074 0.332418
0.580713 0.808865 0.412787
0.746166 0.852064 0.498741
0.858747 0.884215 0.59147
0.934432 0.917998 0.68835
0.972564 0.932036 0.735668
0 0.0990463 0.261601
0 0.118715 0.279652
0.00167849 0.145724 0.292363
0.253086 0.217044 0.364416
0.382239 0.169986 0.359838
0.516625 0.145434 0.339757
0.604456 0.120195 0.314763
0.663142 0.0971847 0.285344
0.691997 0.0681163 0.25124
0 0.135454 0.285756
0 0.154665 0.302922
0 0.179034 0.322271
0.229709 0.267735 0.394553
0.40415 0.251682 0.407691
0.553323 0.225269 0.386358
0.649973 0.205142 0.358022
0.714763 0.186023 0.324453
0.747417 0.161532 0.28716
0 0.186877 0.319005
0 0.203754 0.33489
0 0.226566 0.354528
0.160739 0.306691 0.42237
0.432151 0.363027 0.474708
0.600977 0.327855 0.455222
0.708721 0.310185 0.422141
0.778408 0.292515 0.382803
0.812345 0.268772 0.335973
1.5259e-05 0.251759 0.363058
0 0.267491 0.37435
0 0.292042 0.390082
0.0618296 0.35314 0.437858
0.406409 0.478553 0.533837
0.648463 0.484535 0.538293
0.769467 0.4663 0.501198
0.844541 0.443168 0.45333
0.879728 0.407034 0.394202
0 0.329671 0.405127
0 0.344656 0.412848
0 0.376745 0.430671
0.192462 0.474998 0.510582
0.364569 0.560647 0.572915
0.673182 0.639704 0.607141
0.809476 0.619364 0.560021
0.890211 0.59086 0.505074
0.924651 0.554574 0.440543
0 0.430426 0.448142
0.0702678 0.479728 0.48217
0.223484 0.553658 0.53521
0.375723 0.628199 0.584268
0.528649 0.700267 0.629053
0.666667 0.756146 0.663828
0.827146 0.737514 0.610147
0.915755 0.714595 0.55462
0.938735 0.683589 0.487678
0 0.532876 0.458045
0.0881208 0.582559 0.491066
0.245365 0.653132 0.536873
0.393179 0.718959 0.578027
0.544472 0.782071 0.618387
0.68864 0.818372 0.65037
0.827146 0.841901 0.699718
0.926772 0.825498 0.641611
0.953201 0.80264 0.574228
0 0.610239 0.447074
0.080354 0.655116 0.474968
0.251011 0.724285 0.519295
0.403693 0.784115 0.557946
0.555825 0.832731 0.590051
0.71133 0.86009 0.62945
0.838819 0.884337 0.69514
0.927932 0.900359 0.735927
0.964446 0.884199 0.66276
1.5259e-05 0.649561 0.405936
0.0542306 0.685832 0.425696
0.248051 0.76144 0.471153
0.408331 0.818448 0.507378
0.561044 0.84445 0.5187
0.732082 0.880339 0.585565
0.852277 0.905943 0.661784
0.932464 0.929244 0.739712
0.978882 0.94313 0.790173
0 0.139208 0.330327
0 0.157305 0.347265
0 0.182742 0.368872
0.176059 0.258732 0.434806
0.391501 0.284489 0.476478
0.530221 0.228519 0.464973
0.639918 0.196704 0.439658
0.70927 0.161807 0.407538
0.748516 0.13962 0.370413
1.5259e-05 0.172946 0.354681
0 0.189563 0.371328
0 0.21384 0.396277
0.106432 0.275181 0.443244
0.39794 0.350118 0.516472
0.557687 0.294194 0.510552
0.677592 0.266194 0.484886
0.75198 0.236332 0.450507
0.792599 0.217243 0.409537
0 0.218372 0.389319
0 0.236316 0.406394
0 0.261769 0.428
0 0.294011 0.444587
0.370581 0.42649 0.558053
0.594293 0.409201 0.574426
0.726406 0.373587 0.548333
0.806653 0.343343 0.51165
0.84921 0.320439 0.466575
0 0.284443 0.434684
0 0.302022 0.447303
0 0.325521 0.462776
0 0.358724 0.481529
0.282322 0.486625 0.584054
0.619486 0.563836 0.645319
0.772366 0.526696 0.620813
0.862409 0.497276 0.583352
0.908446 0.472633 0.536126
0 0.361334 0.479377
0 0.376364 0.487327
0 0.398047 0.497459
0 0.441199 0.520241
0.256748 0.555123 0.616495
0.600824 0.670298 0.692882
0.804547 0.679469 0.688334
0.900618 0.653849 0.647196
0.947921 0.622614 0.592569
1.5259e-05 0.441566 0.514778
0 0.458824 0.522271
0.0100252 0.49427 0.542321
0.240543 0.592157 0.622385
0.419806 0.673793 0.677562
0.588418 0.748898 0.725765
0.81651 0.78558 0.733349
0.919005 0.764538 0.687648
0.958923 0.738445 0.630671
0.125277 0.603387 0.59675
0.224033 0.645319 0.626703
0.340322 0.695537 0.660227
0.475029 0.75201 0.697215
0.610712 0.806348 0.73312
0.723583 0.851209 0.763027
0.812238 0.871351 0.776455
0.925078 0.853132 0.720867
0.96434 0.832425 0.658808
0.181872 0.702922 0.609552
0.269047 0.736187 0.632731
0.378958 0.777432 0.66067
0.509087 0.82385 0.692973
0.634058 0.865797 0.722927
0.736706 0.893812 0.744442
0.827604 0.905135 0.760006
0.923354 0.916625 0.802106
0.973114 0.90277 0.734203
0.185168 0.749996 0.585214
0.276219 0.782254 0.607843
0.389624 0.821042 0.635142
0.522225 0.863386 0.666423
0.643854 0.897826 0.693034
0.741497 0.912428 0.700053
0.842069 0.9252 0.730282
0.930053 0.939864 0.793362
0.984497 0.953216 0.841123
0 0.170214 0.395987
0 0.187671 0.417273
0 0.213184 0.443168
1.5259e-05 0.248997 0.459312
0.330785 0.364797 0.572137
0.546288 0.342061 0.595193
0.660853 0.280735 0.575509
0.746838 0.232929 0.541604
0.785229 0.185687 0.500267
1.5259e-05 0.199649 0.420829
0 0.217914 0.441077
0 0.243992 0.465278
0 0.280568 0.488914
0.289509 0.394827 0.588403
0.564019 0.42002 0.635004
0.68864 0.352651 0.617197
0.782147 0.305257 0.583337
0.825498 0.259297 0.542184
0 0.2448 0.457053
1.5259e-05 0.262425 0.472984
0 0.291768 0.497444
1.5259e-05 0.328069 0.525002
0.195132 0.427695 0.597162
0.567651 0.525536 0.681407
0.721157 0.462242 0.672374
0.825666 0.416007 0.639689
0.874891 0.370428 0.599878
0 0.305943 0.499535
0 0.325383 0.514305
0 0.354025 0.535927
0 0.388769 0.557076
0.00173953 0.437629 0.576257
0.535744 0.613565 0.718761
0.753307 0.606104 0.734142
0.867979 0.560571 0.704509
0.922866 0.5178 0.665187
0 0.381201 0.547234
0 0.399756 0.559899
0 0.425162 0.573816
0 0.455756 0.58674
0.00520333 0.50457 0.610727
0.472267 0.668559 0.742336
0.77406 0.739712 0.789975
0.897246 0.702113 0.763653
0.955795 0.668818 0.724987
0 0.466651 0.591867
0 0.48043 0.596963
0 0.500282 0.603586
0 0.533867 0.617258
0.258656 0.645701 0.708217
0.471275 0.728359 0.768063
0.75848 0.814008 0.820874
0.911345 0.811658 0.808911
0.972885 0.783795 0.767102
1.5259e-05 0.553674 0.621622
0 0.56791 0.627283
0.0544289 0.611734 0.657359
0.294499 0.698085 0.72755
0.478798 0.769253 0.775219
0.633066 0.828794 0.812116
0.753735 0.874617 0.841779
0.916854 0.886839 0.834272
0.979126 0.866545 0.787839
0.333577 0.757275 0.744244
0.400717 0.781003 0.760723
0.491707 0.812482 0.781643
0.593545 0.847288 0.805112
0.691569 0.880064 0.827222
0.778042 0.907927 0.847379
0.854047 0.930083 0.8636
0.914611 0.933608 0.864729
0.981414 0.920226 0.807691
0.415351 0.829786 0.74934
0.470863 0.847349 0.761944
0.544121 0.870069 0.778012
0.632319 0.896422 0.797101
0.716869 0.920638 0.815808
0.793851 0.940948 0.832975
0.860777 0.949813 0.838361
0.923415 0.953597 0.848035
0.985763 0.962295 0.887541
0 0.213382 0.483528
0 0.222126 0.491753
0 0.234485 0.503746
0 0.273411 0.539864
0.00915541 0.328573 0.566629
0.477058 0.478538 0.711864
0.674372 0.427695 0.723751
0.765591 0.336965 0.699153
0.822919 0.262745 0.657588
1.5259e-05 0.238682 0.501701
0 0.246494 0.509178
0 0.257755 0.519722
1.5259e-05 0.293278 0.553033
0 0.354391 0.583947
0.446662 0.510704 0.725338
0.68925 0.499077 0.753521
0.789609 0.408103 0.732891
0.854093 0.336049 0.695293
0 0.274296 0.52784
0 0.281041 0.533913
0 0.291936 0.543694
0 0.332448 0.57882
0 0.395041 0.6121
0.385718 0.54995 0.737057
0.705287 0.602274 0.791638
0.818586 0.513756 0.776623
0.890517 0.442908 0.743587
1.5259e-05 0.318059 0.557717
0 0.323339 0.562585
0 0.342733 0.579721
0 0.388403 0.613077
0 0.442878 0.645151
0.278767 0.58323 0.73994
0.705653 0.706676 0.827695
0.847044 0.646555 0.825467
0.925902 0.581109 0.796719
0 0.3626 0.58912
1.5259e-05 0.374411 0.598459
0 0.41146 0.624643
0 0.460609 0.653971
1.5259e-05 0.504433 0.672053
0.0859693 0.585458 0.715312
0.666682 0.760662 0.847333
0.865675 0.765743 0.865995
0.950622 0.712917 0.84358
0 0.444648 0.6421
0 0.468376 0.656153
0 0.499794 0.672038
1.5259e-05 0.535134 0.685206
0 0.569909 0.69482
0.103883 0.646006 0.741878
0.604318 0.799588 0.856672
0.873976 0.861311 0.896666
0.964981 0.817914 0.878843
0 0.549249 0.693492
0 0.563577 0.698558
1.5259e-05 0.5832 0.70367
1.5259e-05 0.607706 0.709102
0 0.644648 0.720577
0.388281 0.771008 0.825986
0.598993 0.838254 0.871214
0.851713 0.902724 0.911101
0.973404 0.899626 0.904204
0 0.636973 0.72253
1.5259e-05 0.645106 0.723568
1.5259e-05 0.661402 0.728511
0.241917 0.749126 0.800259
0.451286 0.813245 0.847562
0.607248 0.859648 0.879118
0.731945 0.8972 0.902831
0.845304 0.931868 0.922591
0.979995 0.94258 0.918944
0.594003 0.877989 0.884016
0.624399 0.887083 0.889601
0.670008 0.900404 0.897688
0.727275 0.916609 0.907423
0.789883 0.933623 0.91783
0.850813 0.949691 0.927871
0.903014 0.963623 0.936553
0.945754 0.972396 0.941619
0.984512 0.971847 0.935439
