src/resources/luts/Kdk_2383.CUBE
TITLE "Kodak 2383_Based Look_LUT For Rec.709_Gamma:2.4 Ashikul Islam IG:@ashikulislam3251_Date:17-12-2024 (Bangladesh) "
LUT_3D_SIZE 5
0.0369726 0.0170901 0.0189975
0.13518 0.0115053 0
0.277943 0 0
0.420966 0 0
0.504707 0 0
0.0144961 0.0877241 0.020798
0.188739 0.145571 0.0626535
0.4 0.118151 0.00370794
0.535256 0.069749 0
0.5991 0.0344244 0
0 0.212329 0.0267643
0.204181 0.314244 0.0701457
0.539376 0.420172 0.168948
0.727016 0.364569 0.0407416
0.784802 0.293065 0
0 0.333425 0.00424201
0.244327 0.451377 0.0289464
0.589822 0.584207 0.173877
0.845075 0.708583 0.324514
0.871992 0.631769 0.146456
0.123095 0.450935 0
0.338109 0.515251 0
0.601984 0.619608 0
0.862715 0.817014 0.352804
0.950378 0.894163 0.563455
0 0.0277562 0.081529
0.149416 0.0361028 0.0911421
0.3131 0.0242161 0.0443732
0.431052 0 0.0103914
0.51339 0 0
0 0.101152 0.128542
0.149233 0.190372 0.199863
0.430121 0.187915 0.131609
0.587045 0.142 0.0544747
0.627909 0.0819409 0
0 0.250111 0.136828
0.111116 0.360845 0.202838
0.51838 0.493156 0.330816
0.774395 0.449592 0.230777
0.836683 0.370596 0.0988022
0 0.395178 0.117998
0.130617 0.521691 0.191318
0.569314 0.66009 0.3234
0.845197 0.757366 0.457374
0.908431 0.698665 0.305043
0 0.412787 0
0.255665 0.549126 0
0.615381 0.718502 0.207065
0.86273 0.846372 0.449042
0.959762 0.910124 0.632807
0 0.0664683 0.194385
0.109987 0.132021 0.254612
0.373098 0.0919203 0.248157
0.553643 0.0544137 0.201587
0.617319 0 0.142168
0 0.15108 0.253803
0 0.198886 0.287037
0.444007 0.28835 0.366674
0.680247 0.264683 0.304082
0.76463 0.21117 0.219883
0 0.300511 0.331411
0.155871 0.409506 0.406806
0.453681 0.576791 0.512489
0.799512 0.553246 0.416236
0.895232 0.480964 0.296559
0 0.484596 0.340063
0.126497 0.58851 0.390402
0.511742 0.74316 0.49865
0.836057 0.813779 0.621866
0.940322 0.769421 0.48632
0 0.582589 0.247456
0.0919509 0.663874 0.276783
0.580713 0.808865 0.412787
0.858747 0.884215 0.59147
0.972564 0.932036 0.735668
0 0.139208 0.330327
0 0.182742 0.368872
0.391501 0.284489 0.476478
0.639918 0.196704 0.439658
0.748516 0.13962 0.370413
0 0.218372 0.389319
0 0.261769 0.428
0.370581 0.42649 0.558053
0.726406 0.373587 0.548333
0.84921 0.320439 0.466575
0 0.361334 0.479377
0 0.398047 0.497459
0.256748 0.555123 0.616495
0.804547 0.679469 0.688334
0.947921 0.622614 0.592569
0.125277 0.603387 0.59675
0.340322 0.695537 0.660227
0.610712 0.806348 0.73312
0.812238 0.871351 0.776455
0.96434 0.832425 0.658808
0.185168 0.749996 0.585214
0.389624 0.821042 0.635142
0.643854 0.897826 0.693034
0.842069 0.9252 0.730282
0.984497 0.953216 0.841123
0 0.213382 0.483528
0 0.234485 0.503746
0.00915541 0.328573 0.566629
0.674372 0.427695 0.723751
0.822919 0.262745 0.657588
0 0.274296 0.52784
0 0.291936 0.543694
0 0.395041 0.6121
0.705287 0.602274 0.791638
0.890517 0.442908 0.743587
0 0.3626 0.58912
0 0.41146 0.624643
1.5259e-05 0.504433 0.672053
0.666682 0.760662 0.847333
0.950622 0.712917 0.84358
0 0.549249 0.693492
1.5259e-05 0.5832 0.70367
0 0.644648 0.720577
0.598993 0.838254 0.871214
0.973404 0.899626 0.904204
0.594003 0.877989 0.884016
0.670008 0.900404 0.897688
0.789883 0.933623 0.91783
0.903014 0.963623 0.936553
0.984512 0.971847 0.935439
